M73 P0
;MINX:35.6
;MAXX:94.4
;MINY:45.6
;MAXY:74.4
;MINZ:0.0
;MAXZ:4.5
;MachineType:WEEDO TINA2
;FilamentType:PLA
;Extruder0Temperature:200
;InfillDensity:10
;FLAVOR:Marlin
;TIME:1058
;FilamentUsed:948.5
;Layer height: 0.2

;Generated with Cura_SteamEngine 3.1
M104 T0 S215
M82 ; absolute extrusion mode
;(**** start.gcode for WEEDO TINA2****)
M104 S150
G28 Z
G28 X Y; Home extruder
G1 X55 Y55 F1000
G1 Z10 F200
G29
G1 Z15 F100
M107 ; Turn off fan
G90 ; Absolute positioning
M82 ; Extruder in absolute mode
M109 S215.0
G92 E0 ; Reset extruder position
G1 X90 Y6 Z0.27 F2000
G1 X20 Y6 Z0.27 E15 F1000
G92 E0 ; Reset extruder position

;LAYER_COUNT:16
;LAYER:-6
M107
M203 Z5
G1 F3600 X84.006 Y46.589 Z0.349
G1 F1200 X85.259 Y47.027 E0.14637
G1 X86.495 Y47.602 E0.2967
G1 X86.666 Y47.694 E0.31811
G1 X87.813 Y48.385 E0.46577
G1 X88.889 Y49.189 E0.61389
G1 X89.064 Y49.337 E0.63917
G1 X90.016 Y50.223 E0.78258
G1 X90.102 Y50.316 E0.79655
G1 X90.973 Y51.311 E0.94237
G1 X91.768 Y52.421 E1.09293
G1 X91.851 Y52.55 E1.10985
G1 X92.525 Y53.748 E1.26143
G1 X93.071 Y54.992 E1.41124
G1 X93.133 Y55.16 E1.43099
G1 X93.544 Y56.461 E1.58144
G1 X93.811 Y57.74 E1.72552
G1 X93.848 Y57.986 E1.75296
G1 X93.97 Y59.15 E1.88202
G1 X93.985 Y59.396 E1.9092
G1 X94 Y59.974 E1.97296
G1 X93.985 Y60.597 E2.04168
G1 X93.97 Y60.843 E2.06885
G1 X93.83 Y62.154 E2.21425
G1 X93.555 Y63.49 E2.36466
G1 X93.506 Y63.67 E2.38523
G1 X93.093 Y64.955 E2.53407
G1 X92.571 Y66.151 E2.67797
G1 X92.487 Y66.325 E2.69928
G1 X91.817 Y67.505 E2.84892
G1 X91.043 Y68.598 E2.99661
G1 X90.908 Y68.769 E3.02063
G1 X90.102 Y69.684 E3.1551
G1 X89.94 Y69.851 E3.18075
G1 X88.948 Y70.764 E3.32942
G1 X87.808 Y71.619 E3.48657
G1 X86.666 Y72.306 E3.63353
G1 X86.495 Y72.398 E3.65494
G1 X85.259 Y72.973 E3.80527
G1 X84.006 Y73.411 E3.95164
G1 X83.803 Y73.469 E3.97492
G1 X82.515 Y73.77 E4.12078
G1 X81.141 Y73.951 E4.27361
G1 X80.96 Y73.962 E4.2936
G1 X79.628 Y73.994 E4.44053
G1 X78.286 Y73.891 E4.58895
G1 X78.075 Y73.863 E4.61242
G1 X76.782 Y73.624 E4.75742
G1 X75.489 Y73.249 E4.90588
G1 X75.294 Y73.18 E4.92869
G1 X74.18 Y72.726 E5.06135
G1 X73.965 Y72.628 E5.0874
G1 X72.786 Y71.996 E5.23492
G1 X71.681 Y71.256 E5.38157
G1 X71.504 Y71.122 E5.40605
G1 X70.483 Y70.264 E5.55312
G1 X69.55 Y69.311 E5.70019
G1 X69.438 Y69.183 E5.71895
G1 X69.233 Y68.924 E5.75537
G1 X68.784 Y68.426 E5.82931
G1 X68.267 Y67.98 E5.90461
G1 X67.698 Y67.603 E5.97987
G1 X67.085 Y67.3 E6.05528
G1 X66.439 Y67.078 E6.13061
G1 X65.771 Y66.938 E6.20587
G1 X65.09 Y66.885 E6.28119
G1 X64.409 Y66.918 E6.35638
G1 X63.736 Y67.035 E6.43171
G1 X63.084 Y67.237 E6.50698
G1 X62.462 Y67.52 E6.58233
G1 X61.881 Y67.88 E6.6577
G1 X61.352 Y68.308 E6.73274
G1 X60.956 Y68.713 E6.7952
G1 X60.115 Y69.67 E6.93569
G1 X59.94 Y69.851 E6.96346
G1 X58.948 Y70.764 E7.11213
G1 X57.902 Y71.551 E7.25648
G1 X57.752 Y71.654 E7.27654
G1 X56.581 Y72.355 E7.42704
G1 X55.379 Y72.921 E7.57355
G1 X55.191 Y72.998 E7.59595
G1 X53.908 Y73.441 E7.74563
G1 X52.621 Y73.748 E7.89154
G1 X52.406 Y73.787 E7.91563
G1 X51.096 Y73.956 E8.06129
G1 X49.748 Y73.994 E8.21
G1 X49.547 Y73.989 E8.23217
G1 X48.208 Y73.883 E8.38029
G1 X46.88 Y73.644 E8.52908
G1 X46.69 Y73.599 E8.55062
G1 X45.404 Y73.222 E8.6984
G1 X44.054 Y72.671 E8.85919
G1 X42.893 Y72.056 E9.00407
G1 X42.703 Y71.943 E9.02845
G1 X41.608 Y71.204 E9.17412
G1 X40.59 Y70.358 E9.32009
G1 X40.419 Y70.202 E9.34561
G1 X39.489 Y69.245 E9.49277
G1 X38.636 Y68.17 E9.6441
G1 X38.53 Y68.02 E9.66435
G1 X37.818 Y66.895 E9.81117
G1 X37.218 Y65.7 E9.95862
G1 X37.126 Y65.489 E9.98401
G1 X36.697 Y64.352 E10.11802
G1 X36.662 Y64.249 E10.13001
G1 X36.317 Y62.946 E10.27865
G1 X36.281 Y62.776 E10.29781
G1 X36.086 Y61.525 E10.43743
G1 X36.074 Y61.427 E10.44832
G1 X36.001 Y60 E10.60589
G1 X36.076 Y58.548 E10.76622
G1 X36.281 Y57.222 E10.91418
G1 X36.318 Y57.05 E10.93358
G1 X36.642 Y55.822 E11.07363
G1 X36.698 Y55.648 E11.09379
G1 X37.126 Y54.511 E11.22776
G1 X37.218 Y54.3 E11.25314
G1 X37.809 Y53.12 E11.39867
G1 X38.53 Y51.98 E11.54742
G1 X38.642 Y51.823 E11.56868
G1 X39.489 Y50.755 E11.719
G1 X40.432 Y49.785 E11.86818
G1 X40.59 Y49.642 E11.89168
G1 X41.608 Y48.796 E12.03764
G1 X42.708 Y48.054 E12.18396
G1 X42.893 Y47.944 E12.2077
G1 X44.054 Y47.329 E12.35258
G1 X45.404 Y46.778 E12.51337
G1 X46.69 Y46.401 E12.66115
G1 X46.875 Y46.357 E12.68212
G1 X48.081 Y46.136 E12.81732
G1 X48.286 Y46.109 E12.84013
G1 X49.628 Y46.006 E12.98855
G1 X50.96 Y46.038 E13.13548
G1 X51.143 Y46.049 E13.15569
G1 X52.515 Y46.23 E13.3083
G1 X53.803 Y46.531 E13.45416
G1 X54.006 Y46.589 E13.47744
G1 X55.259 Y47.027 E13.62381
G1 X56.495 Y47.602 E13.77414
M73 P1
G1 X56.666 Y47.694 E13.79555
G1 X57.813 Y48.385 E13.94321
G1 X58.889 Y49.189 E14.09133
G1 X59.064 Y49.337 E14.11661
G1 X60.016 Y50.223 E14.26002
G1 X60.115 Y50.33 E14.27609
G1 X60.958 Y51.288 E14.41681
G1 X61.431 Y51.763 E14.49074
G1 X61.97 Y52.182 E14.56602
G1 X62.558 Y52.529 E14.64131
G1 X63.185 Y52.799 E14.71659
G1 X63.841 Y52.988 E14.79187
G1 X64.515 Y53.093 E14.86709
G1 X65.198 Y53.113 E14.94244
G1 X65.878 Y53.045 E15.0178
G1 X66.543 Y52.892 E15.09305
G1 X67.185 Y52.657 E15.16844
G1 X67.791 Y52.342 E15.24376
G1 X68.352 Y51.955 E15.31891
G1 X68.859 Y51.5 E15.39403
G1 X69.234 Y51.075 E15.45654
G1 X69.487 Y50.757 E15.50135
G1 X70.432 Y49.785 E15.65084
G1 X70.59 Y49.642 E15.67434
G1 X71.608 Y48.796 E15.8203
G1 X72.708 Y48.054 E15.96662
G1 X72.893 Y47.944 E15.99036
G1 X74.054 Y47.329 E16.13524
G1 X75.404 Y46.778 E16.29603
G1 X76.69 Y46.401 E16.44381
G1 X76.875 Y46.357 E16.46478
G1 X78.081 Y46.136 E16.59999
G1 X78.286 Y46.109 E16.62279
G1 X79.628 Y46.006 E16.77121
G1 X80.96 Y46.038 E16.91814
G1 X81.143 Y46.049 E16.93835
G1 X82.515 Y46.23 E17.09096
G1 X83.803 Y46.531 E17.23682
G1 X84.006 Y46.589 E17.2601
G1 F1680 E14.2601
G1 F3600 X82.449 Y52.401
G1 F1680 E17.2601
G1 F1200 X82.099 Y52.297 E17.30037
G1 X81.437 Y52.146 E17.37524
G1 X81.087 Y52.09 E17.41433
G1 X80.442 Y52.028 E17.48578
G1 X80.092 Y52.016 E17.5244
G1 X79.407 Y52.038 E17.59998
G1 X79.045 Y52.073 E17.64008
G1 X78.403 Y52.177 E17.7118
G1 X78.052 Y52.257 E17.7515
G1 X77.407 Y52.448 E17.82568
G1 X77.076 Y52.57 E17.86458
G1 X76.464 Y52.84 E17.93835
G1 X76.15 Y53.004 E17.97741
G1 X75.59 Y53.344 E18.04965
G1 X75.29 Y53.553 E18.08997
G1 X74.762 Y53.973 E18.16437
G1 X74.502 Y54.209 E18.20309
G1 X74.033 Y54.694 E18.27749
G1 X73.799 Y54.971 E18.31748
G1 X73.411 Y55.491 E18.38902
G1 X73.22 Y55.783 E18.4275
G1 X72.888 Y56.37 E18.50187
G1 X72.733 Y56.692 E18.54128
G1 X72.483 Y57.309 E18.61469
G1 X72.37 Y57.649 E18.6542
G1 X72.201 Y58.295 E18.72783
G1 X72.13 Y58.659 E18.76873
G1 X72.046 Y59.314 E18.84155
G1 X72.023 Y59.661 E18.8799
G1 X72.023 Y60.339 E18.95466
G1 X72.046 Y60.686 E18.99301
G1 X72.13 Y61.341 E19.06583
G1 X72.201 Y61.705 E19.10673
G1 X72.37 Y62.351 E19.18036
G1 X72.483 Y62.691 E19.21987
G1 X72.73 Y63.301 E19.29245
G1 X72.883 Y63.62 E19.33146
G1 X73.218 Y64.215 E19.40676
G1 X73.411 Y64.51 E19.44563
G1 X73.799 Y65.029 E19.51709
G1 X74.033 Y65.306 E19.55708
G1 X74.502 Y65.791 E19.63148
G1 X74.762 Y66.027 E19.6702
G1 X75.29 Y66.447 E19.7446
G1 X75.59 Y66.656 E19.78492
G1 X76.15 Y66.996 E19.85716
G1 X76.464 Y67.16 E19.89622
G1 X77.076 Y67.43 E19.96999
G1 X77.407 Y67.552 E20.00889
G1 X78.052 Y67.743 E20.08307
G1 X78.403 Y67.823 E20.12277
G1 X79.045 Y67.927 E20.19449
G1 X79.407 Y67.962 E20.23459
G1 X80.092 Y67.984 E20.31017
G1 X80.442 Y67.972 E20.34879
G1 X81.087 Y67.91 E20.42024
G1 X81.437 Y67.854 E20.45933
G1 X82.099 Y67.703 E20.5342
G1 X82.449 Y67.599 E20.57447
G1 X83.069 Y67.371 E20.64731
G1 X83.386 Y67.231 E20.68553
G1 X83.975 Y66.924 E20.75877
G1 X84.288 Y66.735 E20.79909
G1 X84.837 Y66.352 E20.87291
G1 X85.118 Y66.128 E20.91254
G1 X85.618 Y65.674 E20.98701
G1 X85.864 Y65.419 E21.02608
G1 X86.291 Y64.919 E21.09859
G1 X86.501 Y64.637 E21.13736
G1 X86.869 Y64.07 E21.2119
G1 X87.042 Y63.763 E21.25076
G1 X87.325 Y63.174 E21.32282
G1 X87.464 Y62.831 E21.36364
G1 X87.677 Y62.196 E21.43749
G1 X87.764 Y61.863 E21.47545
G1 X87.892 Y61.204 E21.54948
G1 X87.953 Y60.731 E21.60207
G1 X87.994 Y60.204 E21.66036
G1 X87.991 Y59.728 E21.71285
G1 X87.953 Y59.269 E21.76364
G1 X87.892 Y58.796 E21.81623
G1 X87.764 Y58.137 E21.89026
G1 X87.677 Y57.804 E21.92821
G1 X87.464 Y57.169 E22.00207
G1 X87.325 Y56.826 E22.04288
G1 X87.046 Y56.245 E22.11396
G1 X86.874 Y55.936 E22.15295
G1 X86.495 Y55.355 E22.22945
G1 X86.285 Y55.074 E22.26813
G1 X85.864 Y54.581 E22.33962
G1 X85.618 Y54.326 E22.3787
G1 X85.118 Y53.872 E22.45317
G1 X84.837 Y53.648 E22.4928
G1 X84.288 Y53.265 E22.56662
G1 X83.975 Y53.076 E22.60694
G1 X83.386 Y52.769 E22.68018
G1 X83.069 Y52.629 E22.71839
G1 X82.449 Y52.401 E22.79124
G1 F1680 E19.79124
G1 F3600 X55.118 Y53.872
G1 F1680 E22.79124
G1 F1200 X54.837 Y53.648 E22.83087
G1 X54.288 Y53.265 E22.90469
G1 X53.975 Y53.076 E22.94501
G1 X53.386 Y52.769 E23.01825
G1 X53.069 Y52.629 E23.05646
G1 X52.449 Y52.401 E23.12931
G1 X52.099 Y52.297 E23.16957
G1 X51.437 Y52.146 E23.24445
G1 X51.087 Y52.09 E23.28354
G1 X50.442 Y52.028 E23.35499
G1 X50.092 Y52.016 E23.39361
G1 X49.407 Y52.038 E23.46919
G1 X49.045 Y52.073 E23.50929
G1 X48.403 Y52.177 E23.58101
G1 X48.052 Y52.257 E23.62071
G1 X47.407 Y52.448 E23.69489
G1 X47.076 Y52.57 E23.73379
G1 X46.464 Y52.84 E23.80755
G1 X46.15 Y53.004 E23.84662
G1 X45.59 Y53.344 E23.91886
G1 X45.29 Y53.553 E23.95918
G1 X44.762 Y53.973 E24.03358
G1 X44.502 Y54.209 E24.0723
G1 X44.033 Y54.694 E24.1467
G1 X43.799 Y54.971 E24.18669
M73 P2
G1 X43.411 Y55.491 E24.25823
G1 X43.22 Y55.783 E24.29671
G1 X42.888 Y56.37 E24.37108
G1 X42.733 Y56.692 E24.41048
G1 X42.483 Y57.309 E24.4839
G1 X42.37 Y57.649 E24.52341
G1 X42.201 Y58.295 E24.59704
G1 X42.13 Y58.659 E24.63794
G1 X42.046 Y59.314 E24.71076
G1 X42.023 Y59.661 E24.74911
G1 X42.023 Y60.339 E24.82387
G1 X42.046 Y60.686 E24.86222
G1 X42.13 Y61.341 E24.93504
G1 X42.201 Y61.705 E24.97594
G1 X42.37 Y62.351 E25.04957
G1 X42.483 Y62.691 E25.08908
G1 X42.73 Y63.301 E25.16166
G1 X42.883 Y63.62 E25.20067
G1 X43.218 Y64.215 E25.27597
G1 X43.411 Y64.51 E25.31484
G1 X43.799 Y65.029 E25.3863
G1 X44.033 Y65.306 E25.42629
G1 X44.502 Y65.791 E25.50068
G1 X44.762 Y66.027 E25.53941
G1 X45.29 Y66.447 E25.6138
G1 X45.59 Y66.656 E25.65412
G1 X46.15 Y66.996 E25.72637
G1 X46.464 Y67.16 E25.76543
G1 X47.076 Y67.43 E25.8392
G1 X47.407 Y67.552 E25.8781
G1 X48.052 Y67.743 E25.95228
G1 X48.403 Y67.823 E25.99198
G1 X49.045 Y67.927 E26.06369
G1 X49.407 Y67.962 E26.1038
G1 X50.092 Y67.984 E26.17938
G1 X50.442 Y67.972 E26.21799
G1 X51.087 Y67.91 E26.28945
G1 X51.437 Y67.854 E26.32854
G1 X52.099 Y67.703 E26.40341
G1 X52.449 Y67.599 E26.44368
G1 X53.069 Y67.371 E26.51652
G1 X53.386 Y67.231 E26.55474
G1 X53.975 Y66.924 E26.62798
G1 X54.288 Y66.735 E26.6683
G1 X54.837 Y66.352 E26.74212
G1 X55.118 Y66.128 E26.78175
G1 X55.618 Y65.674 E26.85622
G1 X55.864 Y65.419 E26.89529
G1 X56.291 Y64.919 E26.9678
G1 X56.501 Y64.637 E27.00657
G1 X56.869 Y64.07 E27.08111
G1 X57.042 Y63.763 E27.11997
G1 X57.325 Y63.174 E27.19203
G1 X57.464 Y62.831 E27.23284
G1 X57.677 Y62.196 E27.3067
G1 X57.764 Y61.863 E27.34466
G1 X57.892 Y61.204 E27.41868
G1 X57.953 Y60.731 E27.47128
G1 X57.994 Y60.204 E27.52957
G1 X57.991 Y59.728 E27.58206
G1 X57.953 Y59.269 E27.63285
G1 X57.892 Y58.796 E27.68544
G1 X57.764 Y58.137 E27.75947
G1 X57.677 Y57.804 E27.79742
G1 X57.464 Y57.169 E27.87128
G1 X57.325 Y56.826 E27.91209
G1 X57.046 Y56.245 E27.98316
G1 X56.874 Y55.936 E28.02216
G1 X56.495 Y55.355 E28.09866
G1 X56.285 Y55.074 E28.13734
G1 X55.864 Y54.581 E28.20883
G1 X55.618 Y54.326 E28.2479
G1 X55.118 Y53.872 E28.32238
G1 F1680 E25.32238
G1 F3600 X54.4 Y53.343
G1 F1680 E28.32238
G1 F1200 X54.4 Y46.727 E29.05195
G1 F1680 E26.05195
G1 F3600 X52.8 Y46.297
G1 F1680 E29.05195
G1 F1200 X52.8 Y52.53 E29.73929
G1 F1680 E26.73929
G1 F3600 X51.2 Y52.108
G1 F1680 E29.73929
G1 F1200 X51.2 Y46.057 E30.40656
G1 F1680 E27.40656
G1 F3600 X49.6 Y46.008
G1 F1680 E30.40656
G1 F1200 X49.6 Y52.032 E31.07085
G1 F1680 E28.07085
G1 F3600 X48 Y52.273
G1 F1680 E31.07085
G1 F1200 X48 Y46.15 E31.74606
G1 F1680 E28.74606
G1 F3600 X46.4 Y46.486
G1 F1680 E31.74606
G1 F1200 X46.4 Y52.874 E32.45049
G1 F1680 E29.45049
G1 F3600 X44.8 Y53.943
G1 F1680 E32.45049
G1 F1200 X44.8 Y47.024 E33.21347
G1 F1680 E30.21347
G1 F3600 X43.2 Y47.781
G1 F1680 E33.21347
G1 F1200 X43.2 Y55.819 E34.09985
G1 F1680 E31.09985
G1 F3600 X38.4 Y52.185
G1 F1680 E34.09985
G1 F1200 X38.4 Y67.814 E35.82333
G1 F1680 E32.82333
G1 F3600 X40 Y69.77
G1 F1680 E35.82333
G1 F1200 X40 Y50.229 E37.97819
G1 F1680 E34.97819
G1 F3600 X41.6 Y48.802
G1 F1680 E37.97819
G1 F1200 X41.6 Y71.197 E40.44778
G1 F1680 E37.44778
G1 F3600 X43.2 Y72.218
G1 F1680 E40.44778
G1 F1200 X43.2 Y64.184 E41.33372
G1 F1680 E38.33372
G1 F3600 X44.8 Y66.058
G1 F1680 E41.33372
G1 F1200 X44.8 Y72.975 E42.09648
G1 F1680 E39.09648
G1 F3600 X46.4 Y73.513
G1 F1680 E42.09648
G1 F1200 X46.4 Y67.127 E42.80069
G1 F1680 E39.80069
G1 F3600 X48 Y67.728
G1 F1680 E42.80069
G1 F1200 X48 Y73.845 E43.47524
G1 F1680 E40.47524
G1 F3600 X49.6 Y73.99
G1 F1680 E43.47524
G1 F1200 X49.6 Y67.969 E44.1392
G1 F1680 E41.1392
G1 F3600 X51.2 Y67.891
G1 F1680 E44.1392
G1 F1200 X51.2 Y73.943 E44.80657
G1 F1680 E41.80657
G1 F3600 X52.8 Y73.706
G1 F1680 E44.80657
G1 F1200 X52.8 Y67.469 E45.49435
G1 F1680 E42.49435
G1 F3600 X54.4 Y66.656
G1 F1680 E45.49435
G1 F1200 X54.4 Y73.272 E46.22393
G1 F1680 E43.22393
G1 F3600 X56 Y72.629
G1 F1680 E46.22393
G1 F1200 X56 Y65.259 E47.03665
G1 F1680 E44.03665
G1 F3600 X57.6 Y62.425
G1 F1680 E47.03665
G1 F1200 X57.6 Y71.745 E48.0644
G1 F1680 E45.0644
G1 F3600 X59.2 Y70.533
G1 F1680 E48.0644
G1 F1200 X59.2 Y49.464 E50.38776
G1 F1680 E47.38776
G1 F3600 X57.6 Y48.257
G1 F1680 E50.38776
G1 F1200 X57.6 Y57.574 E51.41518
G1 F1680 E48.41518
G1 F3600 X56 Y54.74
G1 F1680 E51.41518
M73 P3
G1 F1200 X56 Y47.372 E52.22768
G1 F1680 E49.22768
G1 F3600 X60.8 Y51.109
G1 F1680 E52.22768
G1 F1200 X60.8 Y68.891 E54.18857
G1 F1680 E51.18857
G1 F3600 X62.4 Y67.559
G1 F1680 E54.18857
G1 F1200 X62.4 Y52.436 E55.85625
G1 F1680 E52.85625
G1 F3600 X64 Y53.013
G1 F1680 E55.85625
G1 F1200 X64 Y66.99 E57.39755
G1 F1680 E54.39755
G1 F3600 X65.6 Y66.924
G1 F1680 E57.39755
G1 F1200 X65.6 Y53.072 E58.92506
G1 F1680 E55.92506
G1 F3600 X67.2 Y52.649
G1 F1680 E58.92506
G1 F1200 X67.2 Y67.356 E60.54686
G1 F1680 E57.54686
G1 F3600 X68.8 Y68.443
G1 F1680 E60.54686
G1 F1200 X68.8 Y51.552 E62.4095
G1 F1680 E59.4095
G1 F3600 X70.4 Y49.817
G1 F1680 E62.4095
G1 F1200 X70.4 Y70.179 E64.6549
G1 F1680 E61.6549
G1 F3600 X72 Y71.469
G1 F1680 E64.6549
G1 F1200 X72 Y48.531 E67.18436
G1 F1680 E64.18436
G1 F3600 X73.6 Y47.569
G1 F1680 E67.18436
G1 F1200 X73.6 Y55.238 E68.03005
G1 F1680 E65.03005
G1 F3600 X75.2 Y53.625
G1 F1680 E68.03005
G1 F1200 X75.2 Y46.861 E68.77595
G1 F1680 E65.77595
G1 F3600 X76.8 Y46.374
G1 F1680 E68.77595
G1 F1200 X76.8 Y52.692 E69.47266
G1 F1680 E66.47266
G1 F3600 X78.4 Y52.178
G1 F1680 E69.47266
G1 F1200 X78.4 Y46.1 E70.1429
G1 F1680 E67.1429
G1 F3600 X80 Y46.015
G1 F1680 E70.1429
G1 F1200 X80 Y52.019 E70.80499
G1 F1680 E67.80499
G1 F3600 X81.6 Y52.183
G1 F1680 E70.80499
G1 F1200 X81.6 Y46.11 E71.47468
G1 F1680 E68.47468
G1 F3600 X83.2 Y46.391
G1 F1680 E71.47468
G1 F1200 X83.2 Y52.686 E72.16886
G1 F1680 E69.16886
G1 F3600 X84.8 Y53.622
G1 F1680 E72.16886
G1 F1200 X84.8 Y46.867 E72.91376
G1 F1680 E69.91376
G1 F3600 X86.4 Y47.558
G1 F1680 E72.91376
G1 F1200 X86.4 Y55.227 E73.75945
G1 F1680 E70.75945
G1 F3600 X91.2 Y51.628
G1 F1680 E73.75945
G1 F1200 X91.2 Y68.377 E75.60643
G1 F1680 E72.60643
G1 F3600 X89.6 Y70.164
G1 F1680 E75.60643
G1 F1200 X89.6 Y49.836 E77.84808
G1 F1680 E74.84808
G1 F3600 X88 Y48.525
G1 F1680 E77.84808
G1 F1200 X88 Y71.475 E80.37886
G1 F1680 E77.37886
G1 F3600 X86.4 Y72.443
G1 F1680 E80.37886
G1 F1200 X86.4 Y64.772 E81.22478
G1 F1680 E78.22478
G1 F3600 X84.8 Y66.377
G1 F1680 E81.22478
G1 F1200 X84.8 Y73.134 E81.9699
G1 F1680 E78.9699
G1 F3600 X83.2 Y73.61
G1 F1680 E81.9699
G1 F1200 X83.2 Y67.313 E82.66429
G1 F1680 E79.66429
G1 F3600 X81.6 Y67.816
G1 F1680 E82.66429
G1 F1200 X81.6 Y73.891 E83.33421
G1 F1680 E80.33421
G1 F3600 X80 Y73.986
G1 F1680 E83.33421
