M73 P0
;MINX:28.2
;MAXX:57.0
;MINY:55.0
;MAXY:81.9
;MINZ:0.0
;MAXZ:4.5
;MachineType:WEEDO TINA2
;FilamentType:PLA
;Extruder0Temperature:200
;InfillDensity:10
;FLAVOR:Marlin
;TIME:679
;FilamentUsed:592.4
;Layer height: 0.2

;Generated with Cura_SteamEngine 3.1
M104 T0 S215
M82 ; absolute extrusion mode
;(**** start.gcode for WEEDO TINA2****)
M104 S150
G28 Z
G28 X Y; Home extruder
G1 X55 Y55 F1000
G1 Z10 F200
G29
G1 Z15 F100
M107 ; Turn off fan
G90 ; Absolute positioning
M82 ; Extruder in absolute mode
M109 S215.0
G92 E0 ; Reset extruder position
G1 X90 Y6 Z0.27 F2000
G1 X20 Y6 Z0.27 E15 F1000
G92 E0 ; Reset extruder position

;LAYER_COUNT:16
;LAYER:-6
M107
M203 Z5
G1 F3600 X51.402 Y57.548 Z0.1
G1 F1200 X52.422 Y58.458 E0.04319
G1 X53.382 Y59.503 E0.08803
G1 X54.155 Y60.533 E0.12872
G1 X54.277 Y60.719 E0.13575
G1 X54.925 Y61.797 E0.17549
G1 X55.465 Y62.923 E0.21495
G1 X55.542 Y63.103 E0.22113
G1 X55.978 Y64.311 E0.26171
G1 X56.3 Y65.569 E0.30274
G1 X56.336 Y65.739 E0.30823
G1 X56.531 Y67.059 E0.3504
G1 X56.595 Y68.318 E0.39023
G1 X56.595 Y68.536 E0.39712
G1 X56.531 Y69.805 E0.43726
G1 X56.331 Y71.159 E0.48051
G1 X56.011 Y72.44 E0.52223
G1 X55.95 Y72.633 E0.52863
G1 X55.511 Y73.84 E0.56921
G1 X54.959 Y74.999 E0.60977
G1 X54.862 Y75.179 E0.61623
G1 X54.187 Y76.287 E0.65722
G1 X53.411 Y77.323 E0.69812
G1 X52.488 Y78.339 E0.7415
G1 X52.371 Y78.455 E0.7467
G1 X51.405 Y79.314 E0.78755
G1 X50.349 Y80.088 E0.82892
G1 X50.216 Y80.175 E0.83394
G1 X49.081 Y80.839 E0.87549
G1 X48.03 Y81.326 E0.91209
G1 X47.723 Y81.438 E0.92241
G1 X47.554 Y81.45 E0.92777
G1 X47.394 Y81.414 E0.93295
G1 X47.247 Y81.333 E0.93825
G1 X47.029 Y81.124 E0.94779
G1 X46.518 Y80.693 E0.96892
G1 X45.944 Y80.321 E0.99053
G1 X45.328 Y80.025 E1.01212
G1 X44.681 Y79.81 E1.03367
G1 X44.01 Y79.678 E1.05527
G1 X43.315 Y79.632 E1.07728
G1 X41.885 Y79.632 E1.12247
G1 X41.217 Y79.674 E1.14361
G1 X40.546 Y79.803 E1.1652
G1 X39.897 Y80.016 E1.18679
G1 X39.28 Y80.308 E1.20836
G1 X38.701 Y80.678 E1.23007
G1 X38.019 Y81.276 E1.25873
G1 X37.876 Y81.382 E1.26435
G1 X37.726 Y81.437 E1.2694
G1 X37.565 Y81.449 E1.2745
G1 X37.433 Y81.423 E1.27875
G1 X37.153 Y81.319 E1.28819
G1 X36.119 Y80.839 E1.32421
G1 X34.984 Y80.175 E1.36576
G1 X34.851 Y80.088 E1.37078
G1 X33.795 Y79.314 E1.41215
G1 X32.776 Y78.404 E1.45532
G1 X31.818 Y77.361 E1.50006
G1 X31.045 Y76.331 E1.54076
G1 X30.94 Y76.172 E1.54678
G1 X30.276 Y75.07 E1.58743
G1 X29.727 Y73.924 E1.62758
G1 X29.642 Y73.718 E1.63462
G1 X29.214 Y72.527 E1.67461
M73 P1
G1 X28.898 Y71.286 E1.71507
G1 X28.861 Y71.113 E1.72066
G1 X28.682 Y69.906 E1.75922
G1 X28.663 Y69.721 E1.76509
G1 X28.602 Y68.442 E1.80555
G1 X28.663 Y67.143 E1.84664
G1 X28.682 Y66.958 E1.85252
G1 X28.869 Y65.705 E1.89255
G1 X29.187 Y64.434 E1.93395
G1 X29.238 Y64.263 E1.93958
G1 X29.689 Y63.024 E1.98125
G1 X30.237 Y61.873 E2.02153
G1 X30.344 Y61.676 E2.02861
G1 X31.018 Y60.57 E2.06953
G1 X31.789 Y59.541 E2.11016
G1 X31.895 Y59.415 E2.11536
G1 X32.778 Y58.458 E2.15651
G1 X33.735 Y57.601 E2.1971
G1 X33.894 Y57.474 E2.20353
G1 X34.92 Y56.728 E2.24361
G1 X36.013 Y56.084 E2.28369
G1 X36.218 Y55.977 E2.291
G1 X37.172 Y55.537 E2.3242
G1 X37.477 Y55.426 E2.33445
G1 X37.646 Y55.414 E2.33981
G1 X37.806 Y55.45 E2.34499
G1 X37.953 Y55.531 E2.35029
G1 X38.171 Y55.74 E2.35983
G1 X38.682 Y56.171 E2.38096
G1 X39.256 Y56.543 E2.40257
G1 X39.872 Y56.839 E2.42416
G1 X40.519 Y57.054 E2.44571
G1 X41.19 Y57.186 E2.46731
G1 X41.885 Y57.232 E2.48932
G1 X43.315 Y57.232 E2.53451
G1 X43.983 Y57.19 E2.55565
G1 X44.654 Y57.061 E2.57724
G1 X45.303 Y56.848 E2.59883
G1 X45.92 Y56.556 E2.62039
G1 X46.499 Y56.186 E2.64211
G1 X47.181 Y55.588 E2.67077
G1 X47.324 Y55.482 E2.67639
G1 X47.474 Y55.427 E2.68144
G1 X47.635 Y55.415 E2.68654
G1 X47.767 Y55.441 E2.69079
G1 X48.047 Y55.545 E2.70023
G1 X49.081 Y56.025 E2.73625
G1 X50.206 Y56.683 E2.77743
G1 X50.349 Y56.776 E2.78282
G1 X51.402 Y57.548 E2.82407
G1 F3600 X51.2 Y57.4
G1 F1200 X51.2 Y79.465 E3.52127
G1 F1680 E0.52127
G1 F3600 X49.6 Y80.536
G1 F1680 E3.52127
G1 F1200 X49.6 Y56.329 E4.28614
G1 F1680 E1.28614
G1 F3600 X48 Y55.528
G1 F1680 E4.28614
G1 F1200 X48 Y81.337 E5.10163
G1 F1680 E2.10163
G1 F3600 X46.4 Y80.616
G1 F1680 E5.10163
G1 F1200 X46.4 Y56.249 E5.87155
G1 F1680 E2.87155
G1 F3600 X44.8 Y57.013
G1 F1680 E5.87155
G1 F1200 X44.8 Y79.849 E6.59311
G1 F1680 E3.59311
G1 F3600 X43.2 Y79.632
G1 F1680 E6.59311
G1 F1200 X43.2 Y57.232 E7.30088
G1 F1680 E4.30088
G1 F3600 X41.6 Y57.214
G1 F1680 E7.30088
G1 F1200 X41.6 Y79.65 E8.0098
G1 F1680 E5.0098
G1 F3600 X40 Y79.983
G1 F1680 E8.0098
G1 F1200 X40 Y56.882 E8.73972
G1 F1680 E5.73972
G1 F3600 X38.4 Y55.934
G1 F1680 E8.73972
G1 F1200 X38.4 Y80.942 E9.5299
G1 F1680 E6.5299
G1 F3600 X36.8 Y81.155
G1 F1680 E9.5299
G1 F1200 X36.8 Y55.708 E10.33395
G1 F1680 E7.33395
G1 F3600 X35.2 Y56.563
G1 F1680 E10.33395
G1 F1200 X35.2 Y80.301 E11.08401
G1 F1680 E8.08401
M73 P2
G1 F3600 X33.6 Y79.139
G1 F1680 E11.08401
G1 F1200 X33.6 Y57.721 E11.76075
G1 F1680 E8.76075
G1 F3600 X32 Y59.301
G1 F1680 E11.76075
G1 F1200 X32 Y77.559 E12.33765
G1 F1680 E9.33765
G1 F3600 X30.4 Y75.275
G1 F1680 E12.33765
G1 F1200 X30.4 Y61.584 E12.77025
G1 F1680 E9.77025
G1 F3600 X28.8 Y66.167
G1 F1680 E12.77025
G1 F1200 X28.8 Y70.701 E12.91351
M104 T0 S200
G1 F1680 E9.91351
G1 F3600 X52.8 Y77.996
G1 F1680 E12.91351
G1 F1200 X52.8 Y58.87 E13.51784
G1 F1680 E10.51784
G1 F3600 X54.4 Y60.924
G1 F1680 E13.51784
G1 F1200 X54.4 Y75.938 E13.99224
G1 F1680 E10.99224
G1 F3600 X56 Y72.475
G1 F1680 E13.99224
G1 F1200 X56 Y64.397 E14.24748
G1 F1680 E11.24748
G1 F3600 X51.435 Y57.508
;TIME_ELAPSED:28.178257
;LAYER:-5
G1 X51.435 Y57.508 Z0.37
;TYPE:SUPPORT
G1 F1680 E14.24748
G1 F1980 X52.405 Y58.37 E14.34421
G1 X52.533 Y58.498 E14.3577
G1 X53.42 Y59.469 E14.45574
G1 X54.189 Y60.494 E14.55125
G1 F3600 X54.31 Y60.674
G1 F1980 X50.351 Y56.715 E14.9686
G1 X50.236 Y56.641 E14.9788
G1 X49.11 Y55.982 E15.07605
G1 X48.062 Y55.495 E15.16219
G1 X47.782 Y55.391 E15.18445
G1 X47.747 Y55.384 E15.18712
G1 X55.668 Y63.305 E16.02213
G1 X56.007 Y64.236 E16.09598
G1 X56.062 Y64.42 E16.1103
G1 X56.247 Y65.157 E16.16694
G1 X46.876 Y55.786 E17.15481
G1 X46.468 Y56.144 E17.19527
G1 X46.159 Y56.341 E17.22259
G1 X56.533 Y66.716 E18.31624
G1 X56.567 Y66.942 E18.33328
G1 X56.586 Y67.128 E18.34722
G1 X56.632 Y68.088 E18.41886
G1 X45.325 Y56.78 E19.61087
G1 X45.283 Y56.799 E19.61431
G1 X44.642 Y57.011 E19.66463
G1 X44.341 Y57.069 E19.68748
G1 X56.606 Y69.333 E20.98038
G1 X56.586 Y69.734 E21.01031
G1 X56.568 Y69.913 E21.02372
G1 X56.483 Y70.484 E21.06675
G1 X43.179 Y57.18 E22.46923
G1 X41.906 Y57.18 E22.56412
G1 X56.284 Y71.558 E24.07981
G1 X56.063 Y72.44 E24.14759
G1 X56.024 Y72.57 E24.15771
G1 X40.42 Y56.966 E25.80265
G1 X39.89 Y56.79 E25.84427
G1 X39.28 Y56.497 E25.89472
G1 X38.713 Y56.129 E25.9451
G1 X38.204 Y55.701 E25.99468
G1 X37.985 Y55.49 E26.01735
G1 X37.826 Y55.402 E26.03089
G1 X37.652 Y55.363 E26.04418
G1 X37.55 Y55.369 E26.0518
G1 X55.687 Y73.506 E27.96376
G1 X55.562 Y73.848 E27.9909
G1 X55.302 Y74.394 E28.03598
G1 X36.636 Y55.728 E30.00371
G1 X36.088 Y55.982 E30.04873
G1 X35.791 Y56.156 E30.07439
G1 X54.881 Y75.246 E32.08682
G1 X54.399 Y76.036 E32.1558
G1 X34.989 Y56.626 E34.20196
G1 X34.962 Y56.641 E34.20426
G1 X34.821 Y56.733 E34.21681
G1 X34.245 Y57.156 E34.27008
G1 X53.875 Y76.786 E36.33943
G1 X53.419 Y77.393 E36.39602
M73 P3
G1 X53.32 Y77.503 E36.40705
G1 X33.532 Y57.715 E38.49306
G1 X32.859 Y58.315 E38.56027
G1 X52.712 Y78.168 E40.65312
G1 X52.533 Y78.363 E40.67285
G1 X52.405 Y78.49 E40.6863
G1 X52.064 Y78.793 E40.7203
G1 X32.239 Y58.968 E42.81021
G1 X31.863 Y59.374 E42.85145
G1 X31.742 Y59.516 E42.86536
G1 X31.645 Y59.646 E42.87745
G1 X51.387 Y79.388 E44.95861
G1 X50.652 Y79.927 E45.02655
G1 X31.1 Y60.374 E47.08773
G1 X30.966 Y60.555 E47.10452
G1 X30.604 Y61.152 E47.15656
G1 X49.881 Y80.428 E49.18864
G1 X49.111 Y80.88 E49.2552
G1 X49.076 Y80.895 E49.25804
G1 X30.139 Y61.959 E51.25428
G1 X29.727 Y62.82 E51.32543
G1 X48.206 Y81.298 E53.27339
G1 X48.04 Y81.375 E53.28703
G1 X47.732 Y81.488 E53.31149
G1 X47.547 Y81.499 E53.3253
G1 X47.373 Y81.46 E53.33859
G1 X47.214 Y81.371 E53.35217
G1 X46.995 Y81.161 E53.37479
G1 X46.486 Y80.733 E53.42436
G1 X46.147 Y80.513 E53.45449
G1 X29.373 Y63.738 E55.22282
G1 X29.172 Y64.297 E55.2671
G1 X29.067 Y64.705 E55.2985
G1 X44.109 Y79.747 E56.8842
G1 X44.003 Y79.726 E56.89225
G1 X43.313 Y79.682 E56.94379
G1 X42.77 Y79.681 E56.98426
G1 X28.813 Y65.724 E58.45558
G1 X28.811 Y65.738 E58.45663
G1 X28.649 Y66.832 E58.53907
G1 X41.521 Y79.705 E59.89606
G1 X41.222 Y79.724 E59.91839
G1 X40.557 Y79.851 E59.96886
G1 X40.434 Y79.891 E59.9785
G1 X28.568 Y68.025 E61.22939
G1 X28.553 Y68.324 E61.2517
G1 X28.554 Y68.538 E61.26766
G1 X28.593 Y69.323 E61.32624
G1 X39.52 Y80.249 E62.47809
G1 X39.304 Y80.352 E62.49593
G1 X38.731 Y80.718 E62.54661
G1 X38.723 Y80.725 E62.5474
G1 X28.758 Y70.76 E63.59789
G1 X28.81 Y71.112 E63.62441
G1 X28.847 Y71.298 E63.63855
G1 X29.13 Y72.405 E63.72372
G1 X38.044 Y81.319 E64.66341
G1 X37.899 Y81.426 E64.67685
G1 X37.733 Y81.486 E64.69
G1 X37.559 Y81.499 E64.70301
G1 X37.417 Y81.471 E64.7138
G1 X37.136 Y81.366 E64.73616
G1 X36.542 Y81.09 E64.78498
G1 X29.942 Y74.49 E65.48074
G1 F3600 X30.24 Y75.108
G1 F1980 X30.897 Y76.198 E65.57561
G1 X31.009 Y76.367 E65.59072
G1 X31.78 Y77.392 E65.68633
G1 X32.666 Y78.364 E65.78437
G1 X32.794 Y78.491 E65.79781
G1 X33.765 Y79.353 E65.89459
G1 X34.822 Y80.129 E65.99234
G1 X34.957 Y80.218 E66.00439
G1 X36.089 Y80.88 E66.10214
G1 X36.542 Y81.09 E66.13936
G1 F1680 E63.13936
G1 F3600 X51.435 Y57.508
G1 F1680 E66.13936
G1 F1980 X50.371 Y56.728 E66.2377
G1 X50.351 Y56.715 E66.23948
G1 F1680 E63.23948
G1 F3600 X51.762 Y57.6
;TIME_ELAPSED:50.432949
;LAYER:-4
M106 S255
G1 X51.762 Y57.6 Z0.62
G1 F1680 E66.23948
G1 F2400 X33.435 Y57.6 E66.96333
G1 X33.605 Y57.447 E66.97236
G1 X33.775 Y57.311 E66.98096
G1 X33.928 Y57.2 E66.98843
G1 X51.265 Y57.2 E67.67318
G1 X50.717 Y56.8 E67.69997
M73 P4
G1 X44.804 Y56.8 E67.93352
G1 X45.227 Y56.661 E67.9511
G1 X45.778 Y56.4 E67.97518
G1 X50.118 Y56.4 E68.1466
G1 X49.435 Y56 E68.17786
G1 X46.405 Y56 E68.29753
G1 X46.862 Y55.6 E68.32152
G1 X47.047 Y55.438 E68.33123
G1 X47.196 Y55.323 E68.33867
G1 X47.236 Y55.301 E68.34047
G1 X47.385 Y55.242 E68.3468
G1 X47.446 Y55.227 E68.34928
G1 X47.607 Y55.212 E68.35567
G1 X47.655 Y55.214 E68.35757
G1 X47.825 Y55.248 E68.36441
G1 X48.112 Y55.355 E68.37651
G1 F3600 X48.642 Y55.6
G1 F2400 X46.862 Y55.6 E68.44681
G1 F1680 E65.44681
G1 F3600 X44.603 Y56.866
G1 F1680 E68.44681
G1 F2400 X43.957 Y56.99 E68.47279
G1 X43.307 Y57.031 E68.49852
G1 X41.89 Y57.031 E68.55448
G1 X41.215 Y56.987 E68.5812
G1 X40.569 Y56.859 E68.60721
G1 X40.392 Y56.8 E68.61458
G1 X34.479 Y56.8 E68.84812
G1 X34.807 Y56.561 E68.86415
G1 X35.081 Y56.4 E68.8767
G1 X39.422 Y56.4 E69.04816
G1 X39.353 Y56.367 E69.05118
G1 X38.801 Y56.009 E69.07716
G1 X38.791 Y56 E69.0777
G1 X35.759 Y56 E69.19745
G1 X35.915 Y55.908 E69.2046
G1 X36.126 Y55.798 E69.214
G1 X36.556 Y55.6 E69.2327
G1 X37.105 Y55.347 E69.25657
G1 X37.384 Y55.241 E69.26836
G1 X37.451 Y55.225 E69.27108
G1 X37.61 Y55.212 E69.27738
G1 X37.674 Y55.215 E69.27991
G1 X37.881 Y55.263 E69.28831
G1 X38.078 Y55.374 E69.29724
G1 X38.303 Y55.59 E69.30956
G1 F3600 X38.315 Y55.6
G1 F2400 X36.556 Y55.6 E69.37903
G1 F1680 E66.37903
G1 F3600 X32.988 Y58
G1 F1680 E69.37903
G1 F2400 X52.212 Y58 E70.13831
G1 X51.762 Y57.6 E70.16209
G1 F1680 E67.16209
G1 F3600 X52.645 Y58.4
G1 F1680 E70.16209
G1 F2400 X53.013 Y58.8 E70.18356
G1 X32.188 Y58.8 E71.00607
G1 X31.819 Y59.2 E71.02756
G1 X53.381 Y59.2 E71.87919
G1 X53.449 Y59.275 E71.88318
G1 X53.531 Y59.371 E71.88817
G1 X53.704 Y59.6 E71.89951
G1 X31.495 Y59.6 E72.77668
G1 X31.194 Y60 E72.79645
G1 X54.005 Y60 E73.69741
G1 X54.305 Y60.4 E73.71715
G1 X30.894 Y60.4 E74.6418
G1 X30.884 Y60.412 E74.64242
G1 X30.749 Y60.618 E74.65215
G1 X30.64 Y60.8 E74.66053
G1 X54.559 Y60.8 E75.60524
G1 X54.799 Y61.2 E75.62367
G1 X30.399 Y61.2 E76.58738
G1 X30.159 Y61.6 E76.6058
G1 X55.04 Y61.6 E77.58851
G1 X55.092 Y61.687 E77.59252
G1 X55.14 Y61.782 E77.59672
G1 X55.245 Y62 E77.60628
G1 X29.953 Y62 E78.60522
G1 X29.763 Y62.4 E78.62271
G1 X55.436 Y62.4 E79.6367
G1 X55.627 Y62.8 E79.65421
G1 X29.572 Y62.8 E80.68329
G1 X29.552 Y62.84 E80.68506
G1 X29.471 Y63.028 E80.69314
G1 X29.41 Y63.2 E80.70035
G1 X55.79 Y63.2 E81.74226
G1 X55.934 Y63.6 E81.75905
G1 X29.266 Y63.6 E82.81235
G1 X29.122 Y64 E82.82914
G1 X56.077 Y64 E83.89376
G1 X56.172 Y64.264 E83.90484
M73 P5
G1 X56.207 Y64.4 E83.91039
G1 X28.992 Y64.4 E84.98528
G1 X28.89 Y64.8 E85.00159
G1 X56.31 Y64.8 E86.08458
G1 X56.412 Y65.2 E86.10088
G1 X28.787 Y65.2 E87.19197
G1 X28.703 Y65.528 E87.20535
G1 X28.688 Y65.6 E87.20825
G1 X56.511 Y65.6 E88.30716
G1 X56.533 Y65.709 E88.31155
G1 X56.577 Y66 E88.32318
G1 X28.622 Y66 E89.4273
G1 X28.562 Y66.4 E89.44327
G1 X56.637 Y66.4 E90.55213
G1 X56.696 Y66.8 E90.5681
G1 X28.502 Y66.8 E91.68167
G1 X28.482 Y66.928 E91.68678
G1 X28.469 Y67.032 E91.69092
G1 X28.461 Y67.2 E91.69757
G1 X56.739 Y67.2 E92.81444
G1 X56.758 Y67.6 E92.83026
G1 X28.442 Y67.6 E93.94864
G1 X28.423 Y68 E93.96446
G1 X56.777 Y68 E95.08434
G1 X56.796 Y68.4 E95.10016
G1 X28.403 Y68.4 E96.22158
G1 X28.401 Y68.436 E96.223
G1 X28.418 Y68.8 E96.23739
G1 X56.778 Y68.8 E97.35751
G1 X56.759 Y69.2 E97.37333
G1 X28.438 Y69.2 E98.49191
G1 X28.457 Y69.6 E98.50772
G1 X56.74 Y69.6 E99.6248
G1 X56.729 Y69.83 E99.63389
G1 X56.716 Y69.935 E99.63807
G1 X56.706 Y70 E99.64067
G1 X28.494 Y70 E100.75494
G1 X28.553 Y70.4 E100.77091
G1 X56.646 Y70.4 E101.88048
G1 X56.586 Y70.8 E101.89646
G1 X28.613 Y70.8 E103.00129
G1 X28.672 Y71.2 E103.01726
G1 X56.522 Y71.2 E104.11724
G1 X56.495 Y71.334 E104.12264
G1 X56.427 Y71.6 E104.13348
G1 X28.772 Y71.6 E105.22575
G1 X28.871 Y72 E105.24203
G1 X56.325 Y72 E106.32636
G1 X56.223 Y72.4 E106.34267
G1 X28.971 Y72.4 E107.41902
G1 X28.992 Y72.482 E107.42237
G1 X29.058 Y72.693 E107.4311
G1 X29.096 Y72.8 E107.43558
G1 X56.099 Y72.8 E108.50211
G1 X55.955 Y73.2 E108.5189
G1 X29.242 Y73.2 E109.57396
G1 X29.388 Y73.6 E109.59078
G1 X55.811 Y73.6 E110.6344
G1 X55.743 Y73.789 E110.64233
G1 X55.655 Y74 E110.65136
G1 X29.544 Y74 E111.68265
G1 X29.734 Y74.4 E111.70014
G1 X55.464 Y74.4 E112.71638
G1 X55.272 Y74.8 E112.73391
G1 X29.924 Y74.8 E113.73506
G1 X30.058 Y75.081 E113.74736
G1 X30.102 Y75.169 E113.75124
G1 X30.12 Y75.2 E113.75266
G1 X55.077 Y75.2 E114.73837
G1 X54.836 Y75.6 E114.75682
G1 X30.361 Y75.6 E115.72349
G1 X30.602 Y76 E115.74193
G1 X54.595 Y76 E116.68957
G1 X54.428 Y76.278 E116.70238
G1 X54.347 Y76.4 E116.70816
G1 X30.85 Y76.4 E117.63621
G1 X30.884 Y76.45 E117.6386
G1 X31.147 Y76.8 E117.65589
G1 X54.05 Y76.8 E118.56048
G1 X53.749 Y77.2 E118.58025
G1 X31.448 Y77.2 E119.46106
G1 X31.667 Y77.491 E119.47544
G1 X31.749 Y77.587 E119.48043
G1 X31.76 Y77.6 E119.4811
G1 X53.436 Y77.6 E120.33723
G1 X53.067 Y78 E120.35872
G1 X32.128 Y78 E121.18574
G1 X32.496 Y78.4 E121.2072
G1 X52.698 Y78.4 E122.00511
G1 X52.566 Y78.543 E122.0128
G1 X52.278 Y78.8 E122.02804
G1 X32.916 Y78.8 E122.79277
G1 X33.366 Y79.2 E122.81655
M73 P6
G1 X51.83 Y79.2 E123.54581
G1 X51.53 Y79.468 E123.5617
G1 X51.423 Y79.551 E123.56705
G1 X51.355 Y79.6 E123.57036
G1 X33.848 Y79.6 E124.26182
G1 X34.396 Y80 E124.28862
G1 X40.582 Y80 E124.53295
G1 X39.971 Y80.201 E124.55835
G1 X39.551 Y80.4 E124.57671
G1 X34.975 Y80.4 E124.75744
G1 X35.657 Y80.8 E124.78867
G1 X38.88 Y80.8 E124.91597
G1 X38.821 Y80.838 E124.91874
G1 X38.407 Y81.2 E124.94046
G1 X36.423 Y81.2 E125.01882
G1 X37.086 Y81.507 E125.04768
G1 X37.335 Y81.6 E125.05818
G1 X37.863 Y81.6 E125.07903
G1 X37.813 Y81.62 E125.08116
G1 X37.752 Y81.635 E125.08364
G1 X37.591 Y81.65 E125.09002
G1 X37.543 Y81.648 E125.09192
G1 X37.373 Y81.614 E125.09877
G1 F1680 E122.09877
G1 F3600 X40.595 Y79.996
G1 F1680 E125.09877
G1 F2400 X41.241 Y79.872 E125.12475
G1 X41.891 Y79.831 E125.15047
G1 X43.308 Y79.831 E125.20644
G1 X43.983 Y79.875 E125.23316
G1 X44.613 Y80 E125.25852
G1 X50.805 Y80 E125.50309
G1 X50.391 Y80.301 E125.5233
G1 X50.223 Y80.4 E125.531
G1 X45.647 Y80.4 E125.71174
G1 X45.845 Y80.495 E125.72041
G1 X46.315 Y80.8 E125.74254
