M73 P0
;MINX:29.8
;MAXX:59.0
;MINY:44.0
;MAXY:73.2
;MINZ:0.0
;MAXZ:4.1
;MachineType:WEEDO TINA2
;FilamentType:PLA
;Extruder0Temperature:200
;InfillDensity:10
;FLAVOR:Marlin
;TIME:530
;FilamentUsed:480.8
;Layer height: 0.2

;Generated with Cura_SteamEngine 3.1
M104 T0 S215
M82 ; absolute extrusion mode
;(**** start.gcode for WEEDO TINA2****)
M104 S150
G28 Z
G28 X Y; Home extruder
G1 X55 Y55 F1000
G1 Z10 F200
G29
G1 Z15 F100
M107 ; Turn off fan
G90 ; Absolute positioning
M82 ; Extruder in absolute mode
M109 S215.0
G92 E0 ; Reset extruder position
G1 X90 Y6 Z0.27 F2000
G1 X20 Y6 Z0.27 E15 F1000
G92 E0 ; Reset extruder position

;LAYER_COUNT:14
;LAYER:-6
M107
M203 Z5
G1 F3600 X54.576 Y48.693 Z0.349
G1 F1200 X55.526 Y49.774 E0.1587
G1 X56.325 Y50.894 E0.31041
G1 X56.432 Y51.062 E0.33238
G1 X57.091 Y52.23 E0.48026
G1 X57.683 Y53.578 E0.64261
G1 X58.128 Y54.969 E0.80366
G1 X58.426 Y56.39 E0.96377
G1 X58.573 Y57.777 E1.11758
G1 X58.585 Y57.981 E1.14011
G1 X58.6 Y58.569 E1.20498
G1 X58.574 Y59.409 E1.29765
G1 X58.426 Y60.802 E1.45213
G1 X58.131 Y62.209 E1.61066
G1 X57.718 Y63.513 E1.76149
G1 X57.658 Y63.673 E1.78034
G1 X57.151 Y64.833 E1.91994
G1 X57.101 Y64.942 E1.93316
G1 X56.436 Y66.121 E2.08243
G1 X56.334 Y66.284 E2.10363
G1 X55.518 Y67.427 E2.2585
G1 X54.576 Y68.498 E2.41579
G1 X54.493 Y68.58 E2.42866
G1 X53.502 Y69.492 E2.57717
G1 X52.414 Y70.312 E2.72741
G1 X52.264 Y70.415 E2.74747
G1 X51.072 Y71.129 E2.9007
G1 X49.75 Y71.746 E3.06158
G1 X48.486 Y72.189 E3.20927
G1 X48.286 Y72.25 E3.23233
G1 X46.949 Y72.563 E3.38375
G1 X45.587 Y72.742 E3.53524
G1 X45.377 Y72.757 E3.55846
G1 X44.028 Y72.789 E3.70726
G1 X42.657 Y72.685 E3.85888
G1 X42.474 Y72.661 E3.87923
G1 X41.239 Y72.435 E4.01768
G1 X41.044 Y72.389 E4.03977
G1 X39.723 Y72.001 E4.1916
G1 X38.386 Y71.456 E4.35081
G1 X37.176 Y70.816 E4.50176
G1 X37.017 Y70.721 E4.52219
G1 X35.875 Y69.949 E4.67419
G1 X34.84 Y69.09 E4.82252
G1 X34.683 Y68.944 E4.84616
G1 X33.748 Y67.984 E4.99393
G1 X32.883 Y66.896 E5.14721
G1 X32.777 Y66.747 E5.16737
G1 X32.041 Y65.584 E5.31915
G1 X31.403 Y64.312 E5.47607
G1 X30.911 Y63.02 E5.62852
G1 X30.85 Y62.832 E5.65032
G1 X30.502 Y61.494 E5.80278
G1 X30.285 Y60.123 E5.95584
M73 P1
G1 X30.269 Y59.951 E5.97489
G1 X30.201 Y58.595 E6.12461
G1 X30.268 Y57.24 E6.27422
G1 X30.286 Y57.059 E6.29427
G1 X30.502 Y55.697 E6.44634
G1 X30.852 Y54.352 E6.5996
G1 X30.911 Y54.171 E6.6206
G1 X31.401 Y52.884 E6.77246
G1 X32.007 Y51.671 E6.92198
G1 X32.09 Y51.523 E6.94069
G1 X32.826 Y50.371 E7.09144
G1 X33.751 Y49.205 E7.25557
G1 X34.757 Y48.175 E7.41434
G1 X35.786 Y47.312 E7.56243
G1 X35.969 Y47.175 E7.58764
G1 X37.081 Y46.429 E7.73531
G1 X38.287 Y45.783 E7.88617
G1 X38.465 Y45.7 E7.90783
G1 X39.645 Y45.219 E8.04835
G1 X39.844 Y45.151 E8.07154
G1 X41.131 Y44.778 E8.2193
G1 X42.581 Y44.514 E8.38183
G1 X43.93 Y44.408 E8.53105
G1 X44.144 Y44.402 E8.55466
G1 X45.501 Y44.44 E8.70436
G1 X46.84 Y44.611 E8.85321
G1 X47.038 Y44.647 E8.8754
G1 X48.364 Y44.962 E9.0257
G1 X49.729 Y45.436 E9.18504
G1 X49.883 Y45.502 E9.20351
G1 X51.083 Y46.069 E9.34987
G1 X52.26 Y46.773 E9.50111
G1 X52.407 Y46.874 E9.52078
G1 X53.502 Y47.699 E9.67196
G1 X53.587 Y47.773 E9.68439
G1 X54.576 Y48.693 E9.83334
G1 F1680 E6.83334
G1 F3600 X49.801 Y52.716
G1 F1680 E9.83334
G1 F1200 X49.518 Y52.468 E9.87484
G1 X48.98 Y52.056 E9.94956
G1 X48.682 Y51.858 E9.98902
G1 X48.11 Y51.527 E10.06189
G1 X47.779 Y51.363 E10.10263
G1 X47.129 Y51.093 E10.18024
G1 X46.787 Y50.978 E10.22003
G1 X46.144 Y50.805 E10.29346
G1 X45.779 Y50.732 E10.33451
G1 X45.102 Y50.643 E10.40981
G1 X44.744 Y50.619 E10.44937
G1 X44.056 Y50.619 E10.52524
G1 X43.698 Y50.643 E10.56481
G1 X43.021 Y50.732 E10.64011
G1 X42.656 Y50.805 E10.68115
G1 X42.013 Y50.978 E10.75458
G1 X41.671 Y51.093 E10.79437
G1 X41.021 Y51.363 E10.87199
G1 X40.69 Y51.527 E10.91272
G1 X40.118 Y51.858 E10.9856
G1 X39.82 Y52.056 E11.02505
G1 X39.282 Y52.468 E11.09978
G1 X38.999 Y52.716 E11.14127
G1 X38.514 Y53.2 E11.21683
G1 X38.282 Y53.465 E11.25567
G1 X37.866 Y54.007 E11.33101
G1 X37.662 Y54.312 E11.37148
G1 X37.32 Y54.906 E11.44706
G1 X37.161 Y55.228 E11.48666
G1 X36.903 Y55.851 E11.56102
G1 X36.784 Y56.203 E11.60199
G1 X36.609 Y56.854 E11.67633
G1 X36.537 Y57.215 E11.71692
G1 X36.448 Y57.893 E11.79233
G1 X36.424 Y58.253 E11.83212
G1 X36.424 Y58.939 E11.90777
G1 X36.448 Y59.297 E11.94733
G1 X36.535 Y59.964 E12.02151
G1 X36.607 Y60.328 E12.06243
G1 X36.783 Y60.984 E12.13732
G1 X36.9 Y61.331 E12.17771
G1 X37.159 Y61.958 E12.25251
G1 X37.32 Y62.284 E12.29261
M73 P2
G1 X37.662 Y62.878 E12.36819
G1 X37.864 Y63.18 E12.40826
G1 X38.271 Y63.712 E12.48212
G1 X38.51 Y63.985 E12.52213
G1 X39.008 Y64.483 E12.5998
G1 X39.287 Y64.726 E12.6406
G1 X39.82 Y65.135 E12.71468
G1 X40.118 Y65.333 E12.75414
G1 X40.69 Y65.664 E12.82702
G1 X41.021 Y65.828 E12.86775
G1 X41.671 Y66.098 E12.94537
G1 X42.013 Y66.213 E12.98516
G1 X42.656 Y66.386 E13.05858
G1 X43.022 Y66.459 E13.09974
G1 X43.713 Y66.549 E13.17658
G1 X44.071 Y66.572 E13.21614
G1 X44.729 Y66.572 E13.2887
G1 X45.087 Y66.549 E13.32826
G1 X45.778 Y66.459 E13.4051
G1 X46.144 Y66.386 E13.44626
G1 X46.787 Y66.213 E13.51969
G1 X47.129 Y66.098 E13.55948
G1 X47.779 Y65.828 E13.63709
G1 X48.11 Y65.664 E13.67783
G1 X48.682 Y65.333 E13.7507
G1 X48.98 Y65.135 E13.79016
G1 X49.513 Y64.726 E13.86424
G1 X49.792 Y64.483 E13.90504
G1 X50.29 Y63.985 E13.98271
G1 X50.529 Y63.712 E14.02272
G1 X50.936 Y63.18 E14.09658
G1 X51.138 Y62.878 E14.13665
G1 X51.48 Y62.284 E14.21223
G1 X51.641 Y61.958 E14.25233
G1 X51.9 Y61.331 E14.32714
G1 X52.017 Y60.984 E14.36752
G1 X52.193 Y60.328 E14.44242
G1 X52.265 Y59.964 E14.48333
G1 X52.352 Y59.297 E14.55751
G1 X52.376 Y58.939 E14.59708
G1 X52.376 Y58.253 E14.67272
G1 X52.352 Y57.893 E14.71251
G1 X52.263 Y57.215 E14.78792
G1 X52.191 Y56.854 E14.82851
G1 X52.016 Y56.203 E14.90285
G1 X51.897 Y55.851 E14.94382
G1 X51.639 Y55.228 E15.01818
G1 X51.48 Y54.906 E15.05778
G1 X51.138 Y54.312 E15.13337
G1 X50.934 Y54.007 E15.17383
G1 X50.518 Y53.465 E15.24917
G1 X50.286 Y53.2 E15.28801
G1 X49.801 Y52.716 E15.36357
G1 F3600 X49.6 Y52.539
G1 F1200 X49.6 Y45.392 E16.1517
G1 F1680 E13.1517
G1 F3600 X48 Y44.876
G1 F1680 E16.1517
G1 F1200 X48 Y51.472 E16.87907
G1 F1680 E13.87907
G1 F3600 X46.4 Y50.873
G1 F1680 E16.87907
G1 F1200 X46.4 Y44.555 E17.57578
G1 F1680 E14.57578
G1 F3600 X44.8 Y44.421
G1 F1680 E17.57578
G1 F1200 X44.8 Y50.622 E18.25959
G1 F1680 E15.25959
G1 F3600 X43.2 Y50.709
G1 F1680 E18.25959
G1 F1200 X43.2 Y44.465 E18.94814
G1 F1680 E15.94814
G1 F3600 X41.6 Y44.692
G1 F1680 E18.94814
G1 F1200 X41.6 Y51.123 E19.65731
G1 F1680 E16.65731
G1 F3600 X40 Y51.937
G1 F1680 E19.65731
G1 F1200 X40 Y45.105 E20.4107
G1 F1680 E17.4107
G1 F3600 X38.4 Y45.73
G1 F1680 E20.4107
M73 P3
G1 F1200 X38.4 Y53.331 E21.24889
G1 F1680 E18.24889
G1 F3600 X36.8 Y56.156
G1 F1680 E21.24889
G1 F1200 X36.8 Y46.617 E22.3008
G1 F1680 E19.3008
G1 F3600 X35.2 Y47.803
G1 F1680 E22.3008
G1 F1200 X35.2 Y69.388 E24.68106
G1 F1680 E21.68106
G1 F3600 X36.8 Y70.574
G1 F1680 E24.68106
G1 F1200 X36.8 Y61.035 E25.73296
G1 F1680 E22.73296
G1 F3600 X38.4 Y63.86
G1 F1680 E25.73296
G1 F1200 X38.4 Y71.461 E26.57116
G1 F1680 E23.57116
G1 F3600 X40 Y72.082
G1 F1680 E26.57116
G1 F1200 X40 Y65.255 E27.324
G1 F1680 E24.324
G1 F3600 X41.6 Y66.069
G1 F1680 E27.324
G1 F1200 X41.6 Y72.501 E28.03328
G1 F1680 E25.03328
G1 F3600 X43.2 Y72.726
G1 F1680 E28.03328
G1 F1200 X43.2 Y66.483 E28.72172
G1 F1680 E25.72172
G1 F3600 X44.8 Y66.567
G1 F1680 E28.72172
G1 F1200 X44.8 Y72.771 E29.40586
G1 F1680 E26.40586
G1 F3600 X46.4 Y72.636
G1 F1680 E29.40586
G1 F1200 X46.4 Y66.317 E30.10268
G1 F1680 E27.10268
G1 F3600 X48 Y65.718
G1 F1680 E30.10268
G1 F1200 X48 Y72.317 E30.83038
G1 F1680 E27.83038
G1 F3600 X49.6 Y71.799
G1 F1680 E30.83038
G1 F1200 X49.6 Y64.65 E31.61873
G1 F1680 E28.61873
G1 F3600 X51.2 Y62.77
G1 F1680 E31.61873
G1 F1200 X51.2 Y71.053 E32.53213
G1 F1680 E29.53213
G1 F3600 X52.8 Y70.022
G1 F1680 E32.53213
G1 F1200 X52.8 Y47.171 E35.052
G1 F1680 E32.052
G1 F3600 X51.2 Y46.139
G1 F1680 E35.052
G1 F1200 X51.2 Y54.419 E35.96507
G1 F1680 E32.96507
G1 F3600 X56 Y50.439
G1 F1680 E35.96507
G1 F1200 X56 Y66.752 E37.76396
G1 F1680 E34.76396
G1 F3600 X54.4 Y68.666
G1 F1680 E37.76396
G1 F1200 X54.4 Y48.53 E39.98444
G1 F1680 E36.98444
G1 F3600 X57.6 Y53.39
M104 T0 S200
G1 F1680 E39.98444
G1 F1200 X57.6 Y63.806 E41.13306
G1 F1680 E38.13306
G1 F3600 X33.6 Y67.797
G1 F1680 E41.13306
G1 F1200 X33.6 Y49.395 E43.16232
G1 F1680 E40.16232
G1 F3600 X32 Y51.685
G1 F1680 E43.16232
G1 F1200 X32 Y65.502 E44.68597
G1 F1680 E41.68597
G1 F3600 X30.4 Y60.849
G1 F1680 E44.68597
G1 F1200 X30.4 Y56.34 E45.1832
M73 P4
G1 F1680 E42.1832
G1 F3600 X54.625 Y48.671
;TIME_ELAPSED:28.882248
;LAYER:-5
G1 X54.625 Y48.671 Z0.619
;TYPE:SUPPORT
G1 F1680 E45.1832
G1 F1980 X55.524 Y49.694 E45.28471
G1 X55.629 Y49.826 E45.29729
G1 X56.422 Y50.947 E45.39964
G1 F1680 E42.39964
G1 F3600 X56.928 Y51.837
G1 F1680 E45.39964
G1 F1980 X51.131 Y46.04 E46.01075
G1 X52.277 Y46.723 E46.11019
G1 X52.443 Y46.837 E46.12521
G1 X53.518 Y47.646 E46.22549
G1 X54.625 Y48.671 E46.33795
G1 F1680 E43.33795
G1 F3600 X56.928 Y51.837
G1 F1680 E46.33795
G1 F1980 X57.094 Y52.129 E46.36299
G1 X57.192 Y52.328 E46.37952
G1 X57.73 Y53.561 E46.4798
G1 X57.895 Y54.076 E46.52011
G1 X48.916 Y45.098 E47.46661
G1 X48.483 Y44.946 E47.50081
G1 X48.307 Y44.893 E47.51452
G1 X47.173 Y44.628 E47.60132
G1 X58.357 Y55.811 E48.78026
G1 X58.463 Y56.316 E48.81873
G1 X58.494 Y56.523 E48.83433
G1 X58.573 Y57.301 E48.89262
G1 X45.683 Y44.41 E50.25151
G1 X45.596 Y44.398 E50.25805
G1 X45.368 Y44.382 E50.27509
G1 X44.358 Y44.358 E50.3504
G1 X58.649 Y58.649 E51.85692
G1 X58.63 Y59.346 E51.9089
G1 X58.579 Y59.852 E51.94681
G1 X43.144 Y44.417 E53.57393
G1 X42.652 Y44.454 E53.61071
G1 X42.454 Y44.481 E53.6256
G1 X42.016 Y44.562 E53.65881
G1 X58.44 Y60.985 E55.39013
G1 X58.22 Y62.038 E55.47032
G1 X51.706 Y55.524 E56.15701
G1 X51.849 Y55.868 E56.18478
G1 X51.967 Y56.217 E56.21224
G1 X52.14 Y56.864 E56.26217
G1 X52.212 Y57.222 E56.28939
G1 X52.224 Y57.315 E56.29638
G1 X57.928 Y63.019 E56.89768
G1 X57.766 Y63.529 E56.93757
G1 X57.704 Y63.692 E56.95057
G1 X57.59 Y63.954 E56.97186
G1 X52.324 Y58.688 E57.52699
G1 X52.324 Y58.937 E57.54556
G1 X52.301 Y59.291 E57.572
G1 X52.226 Y59.862 E57.61493
G1 X57.202 Y64.838 E58.13949
G1 X57.142 Y64.973 E58.1505
G1 X56.753 Y65.663 E58.20954
G1 X51.987 Y60.896 E58.71202
G1 X51.968 Y60.968 E58.71757
G1 X51.852 Y61.311 E58.74456
G1 X51.64 Y61.823 E58.78586
G1 X56.274 Y66.456 E59.27432
G1 X55.745 Y67.2 E59.34237
G1 X51.203 Y62.658 E59.82117
G1 X51.094 Y62.849 E59.83757
G1 X50.894 Y63.148 E59.86438
G1 X50.688 Y63.416 E59.88958
G1 X55.17 Y67.898 E60.36206
G1 X54.616 Y68.529 E60.42465
G1 X54.57 Y68.57 E60.42924
G1 X50.101 Y64.102 E60.9003
G1 X49.757 Y64.444 E60.93646
G1 X49.481 Y64.685 E60.96377
G1 X49.442 Y64.715 E60.96744
G1 X53.91 Y69.184 E61.4385
G1 X53.626 Y69.447 E61.46735
M73 P5
G1 X53.434 Y69.609 E61.48608
G1 X53.221 Y69.768 E61.50589
G1 X48.708 Y65.254 E61.9817
G1 X48.655 Y65.289 E61.98643
G1 X48.086 Y65.618 E62.03542
G1 X47.894 Y65.713 E62.05139
G1 X52.493 Y70.312 E62.53621
G1 X52.347 Y70.421 E62.54979
G1 X51.711 Y70.803 E62.60509
G1 X46.996 Y66.088 E63.10214
G1 X46.771 Y66.163 E63.11982
G1 X46.133 Y66.335 E63.16907
G1 X45.998 Y66.362 E63.17933
G1 X50.9 Y71.265 E63.69614
G1 X50.033 Y71.67 E63.76748
G1 X44.874 Y66.511 E64.31133
G1 X44.727 Y66.52 E64.3223
G1 X44.072 Y66.52 E64.37113
G1 X43.718 Y66.498 E64.39757
G1 X43.569 Y66.479 E64.40876
G1 X49.112 Y72.022 E64.99309
G1 X48.375 Y72.278 E65.05125
G1 X48.148 Y72.331 E65.06863
G1 X41.956 Y66.139 E65.72137
G1 F3600 X41.688 Y66.048
G1 F1980 X41.041 Y65.78 E65.77358
G1 X40.713 Y65.618 E65.80084
G1 X40.144 Y65.289 E65.84984
G1 X39.849 Y65.092 E65.87628
G1 X39.318 Y64.685 E65.92615
G1 X39.043 Y64.444 E65.95341
G1 X38.547 Y63.95 E66.00559
G1 X38.311 Y63.679 E66.03238
G1 X37.905 Y63.148 E66.0822
G1 X37.705 Y62.849 E66.10902
G1 X37.364 Y62.259 E66.15981
G1 X37.205 Y61.936 E66.18665
G1 X36.948 Y61.312 E66.23695
G1 X36.855 Y61.038 E66.25852
G1 X36.831 Y60.968 E66.26404
G1 X36.657 Y60.315 E66.31441
G1 X36.584 Y59.954 E66.34187
G1 X36.516 Y59.426 E66.38155
G1 X30.97 Y53.88 E66.9662
G1 X31.318 Y52.955 E67.03987
G1 X36.484 Y58.122 E67.58451
G1 X36.498 Y57.897 E67.60131
G1 X36.587 Y57.222 E67.65206
G1 X36.633 Y56.997 E67.66918
G1 X31.735 Y52.1 E68.18546
G1 X31.961 Y51.647 E68.2232
G1 X32.052 Y51.485 E68.23705
G1 X32.185 Y51.277 E68.25545
G1 X36.906 Y55.998 E68.75313
G1 X36.95 Y55.868 E68.76336
G1 X37.207 Y55.247 E68.81346
G1 X37.281 Y55.1 E68.82573
G1 X32.681 Y50.5 E69.31065
G1 X32.789 Y50.331 E69.3256
G1 X33.229 Y49.776 E69.37839
G1 X37.739 Y54.286 E69.85383
G1 X37.907 Y54.036 E69.87628
G1 X38.279 Y53.552 E69.92178
G1 X33.803 Y49.076 E70.39363
G1 X34.431 Y48.431 E70.46074
G1 X38.892 Y52.893 E70.93106
G1 X39.033 Y52.752 E70.94592
G1 X39.313 Y52.506 E70.9737
G1 X39.577 Y52.305 E70.99844
G1 X35.095 Y47.823 E71.47092
G1 X35.79 Y47.246 E71.53825
G1 X40.334 Y51.789 E72.01722
G1 X40.714 Y51.571 E72.04988
G1 X41.041 Y51.408 E72.07711
G1 X41.171 Y51.353 E72.08763
G1 X36.545 Y46.727 E72.5753
G1 X37.045 Y46.39 E72.62024
G1 X37.328 Y46.238 E72.64419
G1 X42.097 Y51.007 E73.14692
G1 X42.667 Y50.854 E73.19092
G1 X43.029 Y50.782 E73.21843
G1 X43.131 Y50.768 E73.2261
M73 P6
G1 X38.157 Y45.794 E73.75045
G1 X38.275 Y45.73 E73.76046
G1 X38.446 Y45.651 E73.7745
G1 X39.045 Y45.409 E73.82266
G1 X44.305 Y50.669 E74.37715
G1 X44.742 Y50.669 E74.40973
G1 X45.097 Y50.693 E74.43625
G1 X45.678 Y50.769 E74.47993
G1 X39.972 Y45.063 E75.08144
G1 X40.957 Y44.776 E75.15792
G1 X47.47 Y51.288 E75.84445
G1 F3600 X47.757 Y51.408
G1 F1980 X48.086 Y51.57 E75.87179
G1 X48.654 Y51.9 E75.92075
G1 X48.95 Y52.096 E75.94722
G1 X49.486 Y52.506 E75.99752
G1 X49.766 Y52.752 E76.0253
G1 X50.249 Y53.234 E76.07617
G1 X50.478 Y53.496 E76.1021
G1 X50.892 Y54.036 E76.15283
G1 X51.095 Y54.338 E76.17995
G1 X51.434 Y54.929 E76.23074
G1 X51.591 Y55.247 E76.25717
G1 X51.706 Y55.524 E76.27953
G1 F1680 E73.27953
G1 F3600 X36.855 Y61.038
G1 F1680 E76.27953
G1 F1980 X30.668 Y54.851 E76.93175
G1 X30.474 Y55.587 E76.98849
G1 X30.431 Y55.797 E77.00446
G1 X30.419 Y55.874 E77.01027
G1 X47.119 Y72.575 E78.7708
G1 X47.042 Y72.594 E78.77671
G1 X46.837 Y72.631 E78.79224
G1 X46.008 Y72.737 E78.85454
G1 X30.247 Y56.976 E80.51603
G1 X30.225 Y57.122 E80.52703
G1 X30.169 Y58.17 E80.60526
G1 X44.817 Y72.819 E82.14948
G1 X44.144 Y72.839 E82.19966
G1 X43.925 Y72.833 E82.216
G1 X43.528 Y72.802 E82.24568
G1 X30.194 Y59.468 E83.65132
G1 X30.226 Y60.073 E83.69648
G1 X30.354 Y60.901 E83.75893
G1 X42.092 Y72.639 E84.99633
G1 X41.237 Y72.486 E85.06107
G1 X41.03 Y72.437 E85.07693
G1 X40.448 Y72.268 E85.1221
G1 X30.722 Y62.542 E86.14739
G1 X30.817 Y62.901 E86.17508
G1 X31.301 Y64.196 E86.27813
G1 X31.372 Y64.366 E86.29186
G1 X31.472 Y64.565 E86.30846
G1 X38.441 Y71.534 E87.04312
G1 X38.365 Y71.503 E87.04924
G1 X37.159 Y70.864 E87.15097
G1 X36.994 Y70.767 E87.16524
G1 X35.932 Y70.051 E87.26072
G1 X35.754 Y69.917 E87.27732
G1 X34.718 Y69.049 E87.37807
G1 X33.749 Y68.058 E87.48139
G1 X33.631 Y67.923 E87.49475
G1 X32.842 Y66.926 E87.58953
G1 X32.734 Y66.774 E87.60343
G1 X32 Y65.616 E87.70562
G1 F1680 E84.70562
G1 F3600 X54.555 Y48.4
;TIME_ELAPSED:48.049692
;LAYER:-4
M106 S255
G1 X54.555 Y48.4 Z0.869
G1 F1680 E87.70562
G1 F2400 X54.124 Y48 E87.72885
G1 X34.654 Y48 E88.49784
G1 X35.131 Y47.6 E88.52243
G1 X53.69 Y47.6 E89.25545
G1 X53.526 Y47.463 E89.26389
G1 X53.174 Y47.2 E89.28124
G1 X35.607 Y47.2 E89.97507
G1 X35.653 Y47.161 E89.97746
G1 X35.848 Y47.014 E89.9871
M73 P7
G1 X36.167 Y46.8 E90.00227
G1 X52.638 Y46.8 E90.65282
G1 X52.429 Y46.644 E90.66312
G1 X52.025 Y46.4 E90.68176
G1 X36.763 Y46.4 E91.28455
G1 X36.976 Y46.257 E91.29469
G1 X37.081 Y46.197 E91.29946
G1 X37.452 Y46 E91.31605
G1 X51.362 Y46 E91.86545
G1 X51.267 Y45.943 E91.86982
G1 X51.165 Y45.886 E91.87444
G1 X50.56 Y45.6 E91.90087
G1 X38.204 Y45.6 E92.38889
G1 X38.394 Y45.511 E92.39718
G1 X39.164 Y45.2 E92.42997
G1 X49.666 Y45.2 E92.84477
G1 X48.507 Y44.8 E92.89319
G1 X40.336 Y44.8 E93.21592
G1 X40.994 Y44.607 E93.243
