M73 P0
;MINX:20.6
;MAXX:79.4
;MINY:31.6
;MAXY:88.4
;MINZ:0.0
;MAXZ:4.5
;MachineType:WEEDO TINA2
;FilamentType:PLA
;Extruder0Temperature:200
;InfillDensity:10
;FLAVOR:Marlin
;TIME:2033
;FilamentUsed:1789.8
;Layer height: 0.2

;Generated with Cura_SteamEngine 3.1
M104 T0 S215
M82 ; absolute extrusion mode
;(**** start.gcode for WEEDO TINA2****)
M104 S150
G28 Z
G28 X Y; Home extruder
G1 X55 Y55 F1000
G1 Z10 F200
G29
G1 Z15 F100
M107 ; Turn off fan
G90 ; Absolute positioning
M82 ; Extruder in absolute mode
M109 S215.0
G92 E0 ; Reset extruder position
G1 X90 Y6 Z0.27 F2000
G1 X20 Y6 Z0.27 E15 F1000
G92 E0 ; Reset extruder position

;LAYER_COUNT:16
;LAYER:-6
M107
M203 Z5
G1 F3600 X51.555 Y37.101 Z0.1
G1 F1200 X51.677 Y37.287 E0.00703
G1 X52.325 Y38.365 E0.04677
G1 X52.865 Y39.491 E0.08623
G1 X52.942 Y39.671 E0.09241
G1 X53.378 Y40.879 E0.13299
G1 X53.7 Y42.137 E0.17402
G1 X53.736 Y42.307 E0.17952
G1 X53.931 Y43.627 E0.22168
G1 X53.995 Y44.886 E0.26151
G1 X53.995 Y45.104 E0.2684
G1 X53.931 Y46.373 E0.30854
G1 X53.731 Y47.727 E0.35179
G1 X53.415 Y48.994 E0.39305
G1 X53.364 Y49.163 E0.39863
G1 X52.916 Y50.395 E0.44005
G1 X52.359 Y51.566 E0.48102
G1 X52.256 Y51.756 E0.48785
G1 X51.585 Y52.857 E0.52859
G1 X50.811 Y53.891 E0.5694
G1 X50.705 Y54.017 E0.57461
G1 X49.822 Y54.974 E0.61575
G1 X48.805 Y55.882 E0.65883
G1 X47.749 Y56.656 E0.7002
G1 X47.632 Y56.733 E0.70462
G1 X46.614 Y57.332 E0.74194
G1 X46.059 Y57.707 E0.76311
G1 X45.546 Y58.158 E0.78469
G1 X45.094 Y58.67 E0.80627
G1 X44.711 Y59.235 E0.82784
G1 X44.401 Y59.843 E0.8494
G1 X44.171 Y60.486 E0.87098
G1 X44.024 Y61.154 E0.89259
G1 X43.962 Y61.833 E0.91413
G1 X43.987 Y62.516 E0.93573
G1 X44.097 Y63.19 E0.95731
G1 X44.292 Y63.844 E0.97887
G1 X44.567 Y64.469 E1.00045
G1 X44.92 Y65.055 E1.02206
G1 X45.377 Y65.626 E1.04517
G1 X46.242 Y66.58 E1.08586
G1 X46.762 Y67.023 E1.10745
G1 X47.333 Y67.397 E1.12901
G1 X47.947 Y67.697 E1.15061
G1 X48.594 Y67.915 E1.17218
G1 X49.262 Y68.051 E1.19372
G1 X49.944 Y68.102 E1.21533
G1 X50.625 Y68.065 E1.23688
G1 X51.297 Y67.944 E1.25845
G1 X51.949 Y67.738 E1.28006
G1 X52.569 Y67.452 E1.30163
G1 X53.148 Y67.09 E1.32321
G1 X53.678 Y66.656 E1.34485
G1 X55.176 Y65.028 E1.41476
G1 X56.198 Y64.116 E1.45804
G1 X57.251 Y63.344 E1.49929
G1 X57.389 Y63.254 E1.5045
G1 X58.519 Y62.593 E1.54586
G1 X59.572 Y62.105 E1.58253
G1 X59.877 Y61.994 E1.59279
G1 X60.046 Y61.982 E1.59814
G1 X60.206 Y62.018 E1.60332
G1 X60.353 Y62.099 E1.60863
G1 X60.571 Y62.308 E1.61817
G1 X61.082 Y62.739 E1.63929
G1 X61.656 Y63.111 E1.6609
G1 X62.272 Y63.407 E1.6825
G1 X62.919 Y63.622 E1.70404
G1 X63.59 Y63.754 E1.72565
G1 X64.285 Y63.8 E1.74766
G1 X65.715 Y63.8 E1.79284
G1 X66.383 Y63.758 E1.81399
G1 X67.054 Y63.629 E1.83558
G1 X67.703 Y63.416 E1.85716
G1 X68.32 Y63.124 E1.87873
G1 X68.899 Y62.754 E1.90044
G1 X69.581 Y62.156 E1.9291
G1 X69.724 Y62.05 E1.93473
G1 X69.874 Y61.995 E1.93977
G1 X70.035 Y61.983 E1.94488
G1 X70.167 Y62.009 E1.94913
G1 X70.447 Y62.113 E1.95856
G1 X71.481 Y62.593 E1.99458
G1 X72.606 Y63.251 E2.03577
G1 X72.749 Y63.344 E2.04116
G1 X73.802 Y64.116 E2.08241
G1 X74.822 Y65.026 E2.1256
G1 X75.782 Y66.071 E2.17044
G1 X76.555 Y67.101 E2.21113
G1 X76.677 Y67.287 E2.21816
G1 X77.325 Y68.365 E2.2579
G1 X77.865 Y69.491 E2.29736
G1 X77.942 Y69.671 E2.30354
G1 X78.378 Y70.879 E2.34412
G1 X78.7 Y72.137 E2.38515
G1 X78.736 Y72.307 E2.39064
G1 X78.931 Y73.627 E2.43281
G1 X78.995 Y74.886 E2.47264
G1 X78.995 Y75.104 E2.47953
G1 X78.931 Y76.373 E2.51967
G1 X78.731 Y77.727 E2.56292
G1 X78.415 Y78.994 E2.60418
G1 X78.364 Y79.163 E2.60976
G1 X77.916 Y80.395 E2.65118
G1 X77.359 Y81.566 E2.69215
G1 X77.256 Y81.756 E2.69898
G1 X76.585 Y82.857 E2.73972
G1 X75.811 Y83.891 E2.78053
G1 X75.705 Y84.017 E2.78573
G1 X74.822 Y84.974 E2.82688
G1 X73.865 Y85.831 E2.86747
G1 X73.706 Y85.958 E2.8739
G1 X72.68 Y86.704 E2.91398
G1 X71.587 Y87.348 E2.95407
G1 X71.382 Y87.455 E2.96137
G1 X70.43 Y87.894 E2.9945
G1 X70.123 Y88.006 E3.00482
G1 X69.954 Y88.018 E3.01018
G1 X69.794 Y87.982 E3.01536
G1 X69.647 Y87.901 E3.02066
G1 X69.429 Y87.692 E3.0302
G1 X68.918 Y87.261 E3.05133
G1 X68.344 Y86.889 E3.07294
G1 X67.728 Y86.593 E3.09453
G1 X67.081 Y86.378 E3.11608
G1 X66.41 Y86.246 E3.13768
G1 X65.715 Y86.2 E3.15969
G1 X64.285 Y86.2 E3.20488
G1 X63.617 Y86.242 E3.22602
G1 X62.946 Y86.371 E3.24761
G1 X62.297 Y86.584 E3.2692
G1 X61.68 Y86.876 E3.29077
G1 X61.101 Y87.246 E3.31248
G1 X60.419 Y87.844 E3.34114
G1 X60.276 Y87.95 E3.34676
G1 X60.126 Y88.005 E3.35181
G1 X59.965 Y88.017 E3.35691
G1 X59.833 Y87.991 E3.36116
G1 X59.553 Y87.887 E3.3706
G1 X58.519 Y87.407 E3.40662
G1 X57.384 Y86.743 E3.44817
G1 X57.251 Y86.656 E3.45319
G1 X56.195 Y85.882 E3.49456
G1 X55.176 Y84.972 E3.53773
G1 X53.758 Y83.42 E3.60415
G1 X53.238 Y82.977 E3.62574
G1 X52.667 Y82.603 E3.6473
G1 X52.053 Y82.303 E3.6689
G1 X51.406 Y82.085 E3.69047
G1 X50.738 Y81.949 E3.71201
G1 X50.056 Y81.898 E3.73362
G1 X49.375 Y81.935 E3.75517
G1 X48.703 Y82.056 E3.77674
G1 X48.051 Y82.262 E3.79835
G1 X47.431 Y82.548 E3.81992
G1 X46.852 Y82.91 E3.8415
G1 X46.322 Y83.344 E3.86314
G1 X44.824 Y84.972 E3.93305
G1 X43.805 Y85.882 E3.97621
G1 X42.749 Y86.656 E4.01758
G1 X42.616 Y86.743 E4.0226
G1 X41.481 Y87.407 E4.06415
G1 X40.43 Y87.894 E4.10075
G1 X40.123 Y88.006 E4.11108
G1 X39.954 Y88.018 E4.11643
G1 X39.794 Y87.982 E4.12161
G1 X39.647 Y87.901 E4.12692
G1 X39.429 Y87.692 E4.13646
G1 X38.918 Y87.261 E4.15758
G1 X38.344 Y86.889 E4.1792
G1 X37.728 Y86.593 E4.20079
G1 X37.081 Y86.378 E4.22233
G1 X36.41 Y86.246 E4.24394
G1 X35.715 Y86.2 E4.26595
G1 X34.285 Y86.2 E4.31113
G1 X33.617 Y86.242 E4.33228
G1 X32.946 Y86.371 E4.35387
G1 X32.297 Y86.584 E4.37545
G1 X31.68 Y86.876 E4.39702
G1 X31.101 Y87.246 E4.41873
G1 X30.419 Y87.844 E4.44739
G1 X30.276 Y87.95 E4.45302
G1 X30.126 Y88.005 E4.45807
G1 X29.965 Y88.017 E4.46317
G1 X29.833 Y87.991 E4.46742
G1 X29.553 Y87.887 E4.47686
G1 X28.519 Y87.407 E4.51288
G1 X27.384 Y86.743 E4.55442
G1 X27.251 Y86.656 E4.55945
G1 X26.195 Y85.882 E4.60082
G1 X25.176 Y84.972 E4.64398
G1 X24.218 Y83.929 E4.68873
G1 X23.445 Y82.899 E4.72942
G1 X23.318 Y82.705 E4.73675
G1 X22.675 Y81.635 E4.77619
G1 X22.127 Y80.491 E4.81627
G1 X22.057 Y80.327 E4.82191
G1 X21.621 Y79.118 E4.86252
G1 X21.585 Y78.994 E4.8666
G1 X21.261 Y77.681 E4.90933
G1 X21.082 Y76.474 E4.94788
G1 X21.063 Y76.289 E4.95376
G1 X21.002 Y75.01 E4.99422
G1 X21.063 Y73.711 E5.03531
G1 X21.082 Y73.526 E5.04118
G1 X21.269 Y72.273 E5.08121
G1 X21.587 Y71.002 E5.12261
G1 X21.638 Y70.831 E5.12825
G1 X22.089 Y69.592 E5.16991
G1 X22.637 Y68.441 E5.21019
G1 X22.744 Y68.244 E5.21727
G1 X23.418 Y67.138 E5.2582
G1 X24.189 Y66.109 E5.29883
G1 X24.295 Y65.983 E5.30403
G1 X25.178 Y65.026 E5.34517
G1 X26.135 Y64.169 E5.38576
G1 X26.294 Y64.042 E5.39219
G1 X27.329 Y63.29 E5.43262
G1 X28.386 Y62.668 E5.47137
G1 X28.941 Y62.293 E5.49253
G1 X29.454 Y61.842 E5.51411
G1 X29.906 Y61.33 E5.53569
G1 X30.289 Y60.765 E5.55726
G1 X30.599 Y60.157 E5.57883
G1 X30.829 Y59.514 E5.6004
G1 X30.976 Y58.846 E5.62202
G1 X31.038 Y58.167 E5.64356
G1 X31.013 Y57.484 E5.66515
G1 X30.903 Y56.81 E5.68673
G1 X30.708 Y56.156 E5.7083
G1 X30.433 Y55.531 E5.72987
G1 X30.08 Y54.945 E5.75149
G1 X29.623 Y54.374 E5.7746
G1 X29.219 Y53.929 E5.79359
G1 X28.445 Y52.899 E5.8343
G1 X28.318 Y52.705 E5.84162
G1 X27.675 Y51.635 E5.88107
G1 X27.127 Y50.491 E5.92115
G1 X27.057 Y50.327 E5.92678
G1 X26.621 Y49.118 E5.96739
G1 X26.585 Y48.994 E5.97147
G1 X26.261 Y47.681 E6.0142
G1 X26.082 Y46.474 E6.05276
G1 X26.063 Y46.289 E6.05863
G1 X26.002 Y45.01 E6.09909
M73 P1
G1 X26.063 Y43.711 E6.14018
G1 X26.082 Y43.526 E6.14606
G1 X26.269 Y42.273 E6.18609
G1 X26.587 Y41.002 E6.22749
G1 X26.638 Y40.831 E6.23312
G1 X27.089 Y39.592 E6.27479
G1 X27.637 Y38.441 E6.31507
G1 X27.744 Y38.244 E6.32215
G1 X28.418 Y37.138 E6.36307
G1 X29.189 Y36.109 E6.4037
G1 X29.295 Y35.983 E6.4089
G1 X30.178 Y35.026 E6.45005
G1 X31.135 Y34.169 E6.49064
G1 X31.294 Y34.042 E6.49707
G1 X32.32 Y33.296 E6.53715
G1 X33.413 Y32.652 E6.57724
G1 X33.618 Y32.545 E6.58454
G1 X34.572 Y32.105 E6.61774
G1 X34.877 Y31.994 E6.62799
G1 X35.046 Y31.982 E6.63335
G1 X35.206 Y32.018 E6.63853
G1 X35.353 Y32.099 E6.64383
G1 X35.571 Y32.308 E6.65337
G1 X36.082 Y32.739 E6.6745
G1 X36.656 Y33.111 E6.69611
G1 X37.272 Y33.407 E6.7177
G1 X37.919 Y33.622 E6.73925
G1 X38.59 Y33.754 E6.76085
G1 X39.285 Y33.8 E6.78286
G1 X40.715 Y33.8 E6.82805
G1 X41.383 Y33.758 E6.84919
G1 X42.054 Y33.629 E6.87078
G1 X42.703 Y33.416 E6.89237
G1 X43.32 Y33.124 E6.91393
G1 X43.899 Y32.754 E6.93565
G1 X44.581 Y32.156 E6.96431
G1 X44.724 Y32.05 E6.96993
G1 X44.874 Y31.995 E6.97498
G1 X45.035 Y31.983 E6.98008
G1 X45.167 Y32.009 E6.98433
G1 X45.447 Y32.113 E6.99377
G1 X46.481 Y32.593 E7.02979
G1 X47.606 Y33.251 E7.07097
G1 X47.749 Y33.344 E7.07636
G1 X48.802 Y34.116 E7.11761
G1 X49.822 Y35.026 E7.16081
G1 X50.782 Y36.071 E7.20564
G1 X51.555 Y37.101 E7.24633
G1 F3600 X51.2 Y36.628
G1 F1200 X51.2 Y53.372 E7.7754
G1 F1680 E4.7754
G1 F3600 X49.6 Y55.173
G1 F1680 E7.7754
G1 F1200 X49.6 Y34.828 E8.41824
G1 F1680 E5.41824
G1 F3600 X48 Y33.529
G1 F1680 E8.41824
G1 F1200 X48 Y56.473 E9.1432
G1 F1680 E6.1432
G1 F3600 X46.4 Y57.477
G1 F1680 E9.1432
G1 F1200 X46.4 Y32.556 E9.93064
G1 F1680 E6.93064
G1 F3600 X44.8 Y32.022
G1 F1680 E9.93064
G1 F1200 X44.8 Y59.104 E10.78635
G1 F1680 E7.78635
G1 F3600 X44.8 Y64.856
G1 F1680 E10.78635
G1 F1200 X44.8 Y84.994 E11.42265
G1 F1680 E8.42265
G1 F3600 X43.2 Y86.326
G1 F1680 E11.42265
G1 F1200 X43.2 Y33.18 E13.10191
G1 F1680 E10.10191
G1 F3600 X41.6 Y33.716
G1 F1680 E13.10191
G1 F1200 X41.6 Y87.338 E14.79621
G1 F1680 E11.79621
G1 F3600 X40 Y88.015
G1 F1680 E14.79621
G1 F1200 X40 Y33.8 E16.50925
G1 F1680 E13.50925
G1 F3600 X38.4 Y33.717
G1 F1680 E16.50925
G1 F1200 X38.4 Y86.925 E18.19047
G1 F1680 E15.19047
G1 F3600 X36.8 Y86.322
G1 F1680 E18.19047
G1 F1200 X36.8 Y33.181 E19.86958
G1 F1680 E16.86958
G1 F3600 X35.2 Y32.017
G1 F1680 E19.86958
G1 F1200 X35.2 Y86.2 E21.5816
G1 F1680 E18.5816
G1 F3600 X33.6 Y86.246
G1 F1680 E21.5816
G1 F1200 X33.6 Y32.554 E23.27812
G1 F1680 E20.27812
G1 F3600 X32 Y33.528
G1 F1680 E23.27812
G1 F1200 X32 Y86.725 E24.95899
G1 F1680 E21.95899
G1 F3600 X30.4 Y87.859
G1 F1680 E24.95899
G1 F1200 X30.4 Y60.547 E25.82197
G1 F1680 E22.82197
G1 F3600 X28.8 Y62.388
G1 F1680 E25.82197
G1 F1200 X28.8 Y87.537 E26.61661
G1 F1680 E23.61661
G1 F3600 X27.2 Y86.618
G1 F1680 E26.61661
G1 F1200 X27.2 Y63.383 E27.35076
G1 F1680 E24.35076
G1 F3600 X25.6 Y64.648
G1 F1680 E27.35076
G1 F1200 X25.6 Y85.35 E28.00489
G1 F1680 E25.00489
G1 F3600 X24 Y83.638
G1 F1680 E28.00489
G1 F1200 X24 Y66.361 E28.55079
G1 F1680 E25.55079
G1 F3600 X22.4 Y68.938
G1 F1680 E28.55079
G1 F1200 X22.4 Y81.06 E28.93381
G1 F1680 E25.93381
G1 F3600 X46.4 Y83.281
G1 F1680 E28.93381
G1 F1200 X46.4 Y66.715 E29.45725
G1 F1680 E26.45725
G1 F3600 X48 Y67.715
G1 F1680 E29.45725
G1 F1200 X48 Y82.286 E29.91765
G1 F1680 E26.91765
G1 F3600 X49.6 Y81.923
G1 F1680 E29.91765
G1 F1200 X49.6 Y68.077 E30.35515
G1 F1680 E27.35515
G1 F3600 X51.2 Y67.961
G1 F1680 E30.35515
G1 F1200 X51.2 Y82.043 E30.8001
G1 F1680 E27.8001
G1 F3600 X52.8 Y82.69
G1 F1680 E30.8001
G1 F1200 X52.8 Y67.307 E31.28616
G1 F1680 E28.28616
G1 F3600 X54.4 Y65.871
G1 F1680 E31.28616
G1 F1200 X54.4 Y84.122 E31.86283
G1 F1680 E28.86283
G1 F3600 X56 Y85.707
G1 F1680 E31.86283
G1 F1200 X56 Y64.292 E32.53949
G1 F1680 E29.53949
G1 F3600 X57.6 Y63.13
G1 F1680 E32.53949
G1 F1200 X57.6 Y86.869 E33.28957
G1 F1680 E30.28957
G1 F3600 X59.2 Y87.723
G1 F1680 E33.28957
G1 F1200 X59.2 Y62.277 E34.09359
G1 F1680 E31.09359
G1 F3600 X60.8 Y62.502
G1 F1680 E34.09359
G1 F1200 X60.8 Y87.51 E34.88377
G1 F1680 E31.88377
G1 F3600 X62.4 Y86.551
G1 F1680 E34.88377
G1 F1200 X62.4 Y63.45 E35.6137
G1 F1680 E32.6137
G1 F3600 X64 Y63.782
G1 F1680 E35.6137
G1 F1200 X64 Y86.218 E36.32261
G1 F1680 E33.32261
G1 F3600 X65.6 Y86.2
G1 F1680 E36.32261
G1 F1200 X65.6 Y63.8 E37.03039
G1 F1680 E34.03039
G1 F3600 X67.2 Y63.581
G1 F1680 E37.03039
G1 F1200 X67.2 Y86.417 E37.75194
G1 F1680 E34.75194
G1 F3600 X68.8 Y87.184
G1 F1680 E37.75194
G1 F1200 X68.8 Y62.817 E38.52187
G1 F1680 E35.52187
G1 F3600 X70.4 Y62.096
G1 F1680 E38.52187
G1 F1200 X70.4 Y87.905 E39.33736
G1 F1680 E36.33736
G1 F3600 X72 Y87.105
G1 F1680 E39.33736
G1 F1200 X72 Y62.897 E40.10226
G1 F1680 E37.10226
G1 F3600 X73.6 Y63.968
G1 F1680 E40.10226
G1 F1200 X73.6 Y86.036 E40.79955
G1 F1680 E37.79955
G1 F3600 X75.2 Y84.565
G1 F1680 E40.79955
G1 F1200 X75.2 Y65.438 E41.4039
G1 F1680 E38.4039
G1 F3600 X76.8 Y67.492
G1 F1680 E41.4039
G1 F1200 X76.8 Y82.505 E41.87827
G1 F1680 E38.87827
G1 F3600 X78.4 Y79.044
G1 F1680 E41.87827
G1 F1200 X78.4 Y70.965 E42.13354
G1 F1680 E39.13354
G1 F3600 X52.8 Y50.639
G1 F1680 E42.13354
G1 F1200 X52.8 Y39.356 E42.49005
M104 T0 S200
G1 F1680 E39.49005
G1 F3600 X30.4 Y34.827
G1 F1680 E42.49005
G1 F1200 X30.4 Y55.476 E43.1425
G1 F1680 E40.1425
G1 F3600 X28.8 Y53.371
G1 F1680 E43.1425
G1 F1200 X28.8 Y36.628 E43.67153
G1 F1680 E40.67153
G1 F3600 X27.2 Y39.358
G1 F1680 E43.67153
G1 F1200 X27.2 Y50.643 E44.02811
G1 F1680 E41.02811
G1 F3600 X51.589 Y37.063
;TIME_ELAPSED:82.100312
;LAYER:-5
G1 X51.589 Y37.063 Z0.37
;TYPE:SUPPORT
G1 F1680 E44.02811
G1 F1980 X51.72 Y37.26 E44.04574
G1 X52.294 Y38.211 E44.12854
G1 F3600 X52.395 Y38.395
G1 F1980 X46.609 Y32.608 E44.73854
G1 X47.636 Y33.209 E44.82724
G1 X47.77 Y33.296 E44.83915
G1 X48.834 Y34.076 E44.93749
G1 X49.805 Y34.94 E45.03438
G1 X49.932 Y35.067 E45.04777
G1 X50.819 Y36.037 E45.14574
G1 X51.589 Y37.063 E45.24137
G1 F1680 E42.24137
G1 F3600 X53.333 Y40.605
G1 F1680 E45.24137
G1 F1980 X44.724 Y31.996 E46.14891
G1 X44.865 Y31.944 E46.16011
G1 X45.04 Y31.932 E46.17318
G1 X45.182 Y31.959 E46.18396
G1 X45.462 Y32.065 E46.20628
G1 X46.51 Y32.55 E46.29236
G1 X46.609 Y32.608 E46.30091
G1 F1680 E43.30091
G1 F3600 X44.028 Y32.572
G1 F1680 E46.30091
G1 F1980 X43.866 Y32.712 E46.31687
G1 X43.294 Y33.079 E46.36753
G1 X43.272 Y33.089 E46.36933
G1 X53.992 Y43.81 E47.49946
G1 X54.048 Y44.991 E47.58759
G1 X54.042 Y45.132 E47.59811
G1 X42.379 Y33.469 E48.8276
G1 X42.041 Y33.579 E48.8541
G1 X41.376 Y33.707 E48.90458
G1 X41.345 Y33.709 E48.90689
G1 X53.982 Y46.345 E50.239
G1 X53.968 Y46.481 E50.24919
G1 X53.821 Y47.457 E50.32277
G1 X40.113 Y33.749 E51.76783
G1 X39.286 Y33.749 E51.82948
M73 P2
G1 X38.809 Y33.718 E51.86511
G1 X53.59 Y48.499 E53.42329
G1 X53.463 Y49.008 E53.46239
G1 X53.411 Y49.179 E53.47572
G1 X53.301 Y49.483 E53.49981
G1 X37.072 Y33.254 E55.21064
G1 X36.68 Y33.065 E55.24308
G1 X36.111 Y32.698 E55.29355
G1 X35.604 Y32.269 E55.34306
G1 X35.385 Y32.06 E55.36562
G1 X35.226 Y31.971 E55.3792
G1 X35.051 Y31.931 E55.39259
G1 X34.866 Y31.942 E55.4064
G1 X34.589 Y32.043 E55.42838
G1 X52.961 Y50.416 E57.36516
G1 X52.552 Y51.279 E57.43635
G1 X33.717 Y32.444 E59.42189
G1 X33.488 Y32.55 E59.4407
G1 X32.897 Y32.897 E59.49179
G1 X52.103 Y52.103 E61.51644
G1 X51.719 Y52.738 E61.57176
G1 X51.634 Y52.874 E61.58371
G1 X51.62 Y52.893 E61.58547
G1 X32.11 Y33.383 E63.64217
G1 X31.376 Y33.922 E63.71005
G1 X51.075 Y53.621 E65.78668
G1 X50.856 Y53.914 E65.81394
G1 X50.737 Y54.056 E65.82775
G1 X50.498 Y54.316 E65.85408
G1 X30.684 Y34.503 E67.94277
G1 X30.194 Y34.938 E67.99162
G1 X30.027 Y35.118 E68.00992
G1 X49.887 Y54.978 E70.10351
G1 X49.856 Y55.01 E70.10684
G1 X49.218 Y55.582 E70.17071
G1 X29.414 Y35.778 E72.2584
G1 X29.262 Y35.942 E72.27507
G1 X29.143 Y36.084 E72.28888
G1 X28.845 Y36.482 E72.32594
G1 X48.518 Y56.155 E74.39982
G1 X47.782 Y56.691 E74.46769
G1 X28.309 Y37.218 E76.52049
G1 X27.828 Y38.011 E76.58963
G1 X46.987 Y57.17 E78.60932
G1 X46.642 Y57.374 E78.6392
G1 X46.209 Y57.664 E78.67805
G1 X27.388 Y38.843 E80.66211
G1 X27.085 Y39.475 E80.71436
G1 X27.01 Y39.651 E80.72862
G1 X26.986 Y39.714 E80.73365
G1 X45.528 Y58.256 E82.6883
G1 X45.134 Y58.701 E82.7326
G1 X44.959 Y58.959 E82.75584
G1 X26.65 Y40.65 E84.68594
G1 X26.573 Y40.865 E84.70296
G1 X26.372 Y41.645 E84.763
G1 X44.496 Y59.769 E86.67359
G1 X44.448 Y59.862 E86.68139
G1 X44.22 Y60.499 E86.73183
G1 X44.172 Y60.718 E86.74854
G1 X26.153 Y42.7 E88.64801
G1 X26.019 Y43.602 E88.71598
G1 X26.007 Y43.826 E88.7327
