M73 P0
;MINX:17.0
;MAXX:72.0
;MINY:39.0
;MAXY:96.0
;MINZ:0.0
;MAXZ:25.3
;MachineType:WEEDO TINA2
;FilamentType:PLA
;Extruder0Temperature:200
;InfillDensity:50
;FLAVOR:Marlin
;TIME:11037
;FilamentUsed:5721.9
;Layer height: 0.1

;Generated with Cura_SteamEngine 3.1
M104 T0 S215
M82 ; absolute extrusion mode
;(**** start.gcode for WEEDO TINA2****)
M104 S150
G28 Z
G28 X Y; Home extruder
G1 X55 Y55 F1000
G1 Z10 F200
G29
G1 Z15 F100
M107 ; Turn off fan
G90 ; Absolute positioning
M82 ; Extruder in absolute mode
M109 S215.0
G92 E0 ; Reset extruder position
G1 X90 Y6 Z0.27 F2000
G1 X20 Y6 Z0.27 E15 F1000
G92 E0 ; Reset extruder position

;LAYER_COUNT:239
;LAYER:-8
M107
M203 Z5
G1 F3600 X55.449 Y43.519 Z0.1
G1 F1200 X56.246 Y44.41 E0.03777
G1 X56.323 Y44.51 E0.04176
G1 X56.949 Y45.4 E0.07614
G1 X56.985 Y45.461 E0.07838
G1 X57.449 Y46.3 E0.10867
G1 X57.549 Y46.502 E0.1158
G1 X57.967 Y47.522 E0.15063
G1 X58.269 Y48.558 E0.18472
G1 X58.315 Y48.764 E0.19139
G1 X58.47 Y49.678 E0.22068
G1 X58.498 Y49.904 E0.22788
G1 X58.558 Y50.992 E0.26231
G1 X58.559 Y53.264 E0.3341
G1 X58.601 Y53.932 E0.35525
G1 X58.73 Y54.603 E0.37684
G1 X58.943 Y55.252 E0.39842
G1 X59.235 Y55.869 E0.41999
G1 X59.603 Y56.444 E0.44156
G1 X60.041 Y56.968 E0.46314
G1 X60.541 Y57.432 E0.48469
G1 X61.097 Y57.831 E0.50631
G1 X61.697 Y58.155 E0.52786
G1 X62.333 Y58.401 E0.54941
G1 X62.997 Y58.565 E0.57102
G1 X63.6 Y58.636 E0.5902
G1 X63.6 Y58.649 E0.59061
G1 X65.809 Y58.649 E0.66041
G1 X66.088 Y58.669 E0.66925
G1 X66.14 Y58.68 E0.67093
G1 X66.298 Y58.744 E0.67632
G1 X66.396 Y58.815 E0.68014
G1 X66.534 Y58.949 E0.68622
G1 X67.045 Y59.385 E0.70744
G1 X67.616 Y59.759 E0.72901
G1 X68.23 Y60.058 E0.75059
G1 X68.877 Y60.277 E0.77217
G1 X69.539 Y60.412 E0.79352
G1 X69.887 Y60.449 E0.80458
G1 X70.054 Y60.46 E0.80986
G1 X70.216 Y60.513 E0.81525
G1 X70.258 Y60.535 E0.81675
G1 X70.368 Y60.617 E0.82108
G1 X70.478 Y60.764 E0.82688
G1 X70.528 Y60.891 E0.8312
G1 X70.554 Y61.009 E0.83502
G1 X70.56 Y61.141 E0.83919
G1 X70.56 Y93.769 E1.87014
G1 X70.54 Y94.048 E1.87898
G1 X70.529 Y94.1 E1.88066
G1 X70.465 Y94.258 E1.88605
G1 X70.381 Y94.37 E1.89047
G1 X70.236 Y94.478 E1.89618
G1 X70.109 Y94.528 E1.90049
G1 X69.99 Y94.554 E1.90434
G1 X69.853 Y94.56 E1.90868
G1 X19.231 Y94.56 E3.50819
G1 X18.952 Y94.54 E3.51702
G1 X18.9 Y94.529 E3.5187
G1 X18.742 Y94.465 E3.52409
G1 X18.631 Y94.383 E3.52845
G1 X18.522 Y94.236 E3.53423
G1 X18.471 Y94.105 E3.53868
G1 X18.445 Y93.982 E3.54265
G1 X18.44 Y93.853 E3.54673
G1 X18.44 Y61.231 E4.57749
G1 X18.46 Y60.952 E4.58633
G1 X18.47 Y60.903 E4.58791
G1 X18.531 Y60.747 E4.5932
G1 X18.616 Y60.632 E4.59772
G1 X18.764 Y60.522 E4.60354
G1 X18.891 Y60.472 E4.60786
G1 X19.01 Y60.446 E4.61171
G1 X19.147 Y60.44 E4.61604
G1 X25.053 Y60.44 E4.80265
G1 X25.721 Y60.398 E4.8238
G1 X26.392 Y60.269 E4.84539
G1 X27.041 Y60.056 E4.86697
G1 X27.658 Y59.764 E4.88854
G1 X28.233 Y59.396 E4.91011
G1 X28.757 Y58.958 E4.93169
G1 X29.221 Y58.458 E4.95324
G1 X29.62 Y57.902 E4.97487
G1 X29.944 Y57.302 E4.99641
G1 X30.19 Y56.666 E5.01796
G1 X30.356 Y55.997 E5.03974
G1 X30.44 Y55.058 E5.06953
G1 X30.441 Y50.959 E5.19904
G1 X30.509 Y49.825 E5.23494
G1 X30.683 Y48.774 E5.2686
G1 X30.728 Y48.569 E5.27523
G1 X31.033 Y47.522 E5.30969
G1 X31.451 Y46.502 E5.34452
G1 X31.545 Y46.311 E5.35125
G1 X32.016 Y45.461 E5.38195
G1 X32.051 Y45.4 E5.38417
G1 X32.677 Y44.51 E5.41855
G1 X32.754 Y44.41 E5.42254
G1 X33.543 Y43.527 E5.45996
G1 X34.41 Y42.754 E5.49666
G1 X35.395 Y42.054 E5.53484
G1 X36.438 Y41.48 E5.57246
G1 X37.407 Y41.077 E5.60562
G1 X37.623 Y41.001 E5.61285
G1 X38.647 Y40.708 E5.64651
G1 X39.678 Y40.53 E5.67957
G1 X39.921 Y40.502 E5.68729
G1 X41.033 Y40.441 E5.72248
G1 X48.041 Y40.442 E5.94392
G1 X49.169 Y40.508 E5.97962
G1 X50.236 Y40.685 E6.01379
G1 X50.436 Y40.73 E6.02027
G1 X51.483 Y41.035 E6.05473
G1 X52.498 Y41.451 E6.08939
G1 X52.7 Y41.551 E6.09651
G1 X53.539 Y42.016 E6.12682
G1 X53.605 Y42.054 E6.12923
G1 X54.59 Y42.754 E6.16741
G1 X55.449 Y43.519 E6.20375
G1 F1680 E3.20375
G1 F3600 X56 Y44.135
G1 F1680 E6.20375
G1 F1200 X56 Y94.56 E7.79704
G1 F1680 E4.79704
G1 F3600 X54.4 Y94.56
G1 F1680 E7.79704
G1 F1200 X54.4 Y42.619 E9.43822
G1 F1680 E6.43822
G1 F3600 X52.8 Y41.607
G1 F1680 E9.43822
G1 F1200 X52.8 Y94.56 E11.11139
G1 F1680 E8.11139
G1 F3600 X51.2 Y94.56
G1 F1680 E11.11139
G1 F1200 X51.2 Y40.953 E12.80521
G1 F1680 E9.80521
G1 F3600 X49.6 Y40.58
G1 F1680 E12.80521
G1 F1200 X49.6 Y94.56 E14.51083
G1 F1680 E11.51083
G1 F3600 X48 Y94.56
G1 F1680 E14.51083
G1 F1200 X48 Y40.442 E16.2208
G1 F1680 E13.2208
G1 F3600 X46.4 Y40.442
G1 F1680 E16.2208
G1 F1200 X46.4 Y94.56 E17.93077
G1 F1680 E14.93077
G1 F3600 X44.8 Y94.56
G1 F1680 E17.93077
G1 F1200 X44.8 Y40.442 E19.64075
G1 F1680 E16.64075
G1 F3600 X43.2 Y40.442
G1 F1680 E19.64075
G1 F1200 X43.2 Y94.56 E21.35072
G1 F1680 E18.35072
G1 F3600 X41.6 Y94.56
G1 F1680 E21.35072
G1 F1200 X41.6 Y40.442 E23.06069
G1 F1680 E20.06069
G1 F3600 X40 Y40.497
G1 F1680 E23.06069
G1 F1200 X40 Y94.56 E24.76893
G1 F1680 E21.76893
G1 F3600 X38.4 Y94.56
G1 F1680 E24.76893
G1 F1200 X38.4 Y40.778 E26.46829
G1 F1680 E23.46829
G1 F3600 X36.8 Y41.329
G1 F1680 E26.46829
G1 F1200 X36.8 Y94.56 E28.15023
G1 F1680 E25.15023
G1 F3600 X35.2 Y94.56
G1 F1680 E28.15023
G1 F1200 X35.2 Y42.192 E29.80491
G1 F1680 E26.80491
G1 F3600 X33.6 Y43.476
G1 F1680 E29.80491
G1 F1200 X33.6 Y94.56 E31.41902
G1 F1680 E28.41902
G1 F3600 X32 Y94.56
G1 F1680 E31.41902
G1 F1200 X32 Y45.489 E32.96952
G1 F1680 E29.96952
G1 F3600 X30.4 Y55.505
G1 F1680 E32.96952
G1 F1200 X30.4 Y94.56 E34.20355
G1 F1680 E31.20355
G1 F3600 X28.8 Y94.56
G1 F1680 E34.20355
G1 F1200 X28.8 Y58.911 E35.32995
G1 F1680 E32.32995
G1 F3600 X27.2 Y59.98
G1 F1680 E35.32995
G1 F1200 X27.2 Y94.56 E36.42258
G1 F1680 E33.42258
G1 F3600 X25.6 Y94.56
G1 F1680 E36.42258
G1 F1200 X25.6 Y60.405 E37.50178
G1 F1680 E34.50178
G1 F3600 X24 Y60.44
G1 F1680 E37.50178
G1 F1200 X24 Y94.56 E38.57988
G1 F1680 E35.57988
G1 F3600 X22.4 Y94.56
G1 F1680 E38.57988
G1 F1200 X22.4 Y60.44 E39.65797
G1 F1680 E36.65797
G1 F3600 X20.8 Y60.44
G1 F1680 E39.65797
G1 F1200 X20.8 Y94.56 E40.73607
G1 F1680 E37.73607
G1 F3600 X19.2 Y94.557
G1 F1680 E40.73607
G1 F1200 X19.2 Y60.44 E41.81406
G1 F1680 E38.81406
G1 F3600 X59.2 Y55.796
G1 F1680 E41.81406
G1 F1200 X59.2 Y94.56 E43.0389
G1 F1680 E40.0389
G1 F3600 X57.6 Y94.56
G1 F1680 E43.0389
G1 F1200 X57.6 Y46.627 E44.55344
G1 F1680 E41.55344
G1 F3600 X60.8 Y57.618
G1 F1680 E44.55344
G1 F1200 X60.8 Y94.56 E45.7207
G1 F1680 E42.7207
G1 F3600 X62.4 Y94.56
G1 F1680 E45.7207
G1 F1200 X62.4 Y58.418 E46.86269
G1 F1680 E43.86269
G1 F3600 X64 Y58.649
G1 F1680 E46.86269
G1 F1200 X64 Y94.56 E47.99737
G1 F1680 E44.99737
G1 F3600 X65.6 Y94.56
G1 F1680 E47.99737
G1 F1200 X65.6 Y58.649 E49.13205
G1 F1680 E46.13205
G1 F3600 X67.2 Y59.487
G1 F1680 E49.13205
G1 F1200 X67.2 Y94.56 E50.24026
G1 F1680 E47.24026
G1 F3600 X68.8 Y94.56
M104 T0 S200
G1 F1680 E50.24026
G1 F1200 X68.8 Y60.251 E51.32433
G1 F1680 E48.32433
G1 F3600 X70.4 Y60.66
G1 F1680 E51.32433
G1 F1200 X70.4 Y94.345 E52.38868
G1 F1680 E49.38868
G1 F3600 X55.483 Y43.482
;TIME_ELAPSED:92.905661
;LAYER:-7
G1 X55.483 Y43.482 Z0.37
;TYPE:SUPPORT
G1 F1680 E52.38868
G1 F1980 X54.703 Y42.782 E52.4668
G1 X54.519 Y42.637 E52.48426
G1 X53.626 Y42.009 E52.56564
G1 X53.259 Y41.804 E52.59697
G1 X57.195 Y45.739 E53.01185
G1 F3600 X57.028 Y45.435
G1 F1980 X56.917 Y45.261 E53.02723
G1 X56.286 Y44.378 E53.10813
G1 X55.483 Y43.482 E53.19782
G1 F1680 E50.19782
G1 F3600 X53.259 Y41.804
G1 F1680 E53.19782
G1 F1980 X52.722 Y41.505 E53.24363
G1 X52.504 Y41.398 E53.26173
G1 X51.495 Y40.984 E53.34303
G1 X51.032 Y40.85 E53.37896
G1 X58.15 Y47.968 E54.12932
G1 X58.341 Y48.641 E54.18147
G1 X58.507 Y49.597 E54.2538
G1 X49.405 Y40.496 E55.21326
G1 X49.186 Y40.459 E55.22981
G1 X48.027 Y40.39 E55.31636
G1 X58.607 Y50.97 E56.43168
G1 X58.609 Y51.014 E56.43496
G1 X58.609 Y52.245 E56.52672
G1 X46.754 Y40.39 E57.77645
G1 X45.481 Y40.39 E57.87134
G1 X58.626 Y53.535 E59.25706
G1 X58.65 Y53.926 E59.28626
G1 X58.778 Y54.59 E59.33667
G1 X58.959 Y55.14 E59.37983
G1 X44.209 Y40.39 E60.93474
G1 X42.936 Y40.39 E61.02963
G1 X70.61 Y68.065 E63.94701
G1 X70.61 Y69.338 E64.0419
G1 X41.663 Y40.39 E67.09348
G1 X40.987 Y40.39 E67.14387
G1 X40.422 Y40.422 E67.18606
G1 X70.61 Y70.61 E70.3684
G1 X70.61 Y71.883 E70.4633
G1 X39.275 Y40.548 E73.76656
G1 X38.637 Y40.657 E73.81481
G1 X38.229 Y40.774 E73.84645
G1 X70.61 Y73.156 E77.26003
G1 X70.61 Y74.429 E77.35492
G1 X37.263 Y41.081 E80.87034
G1 X36.404 Y41.439 E80.93971
G1 X36.368 Y41.459 E80.94278
G1 X70.61 Y75.702 E84.55254
G1 X70.61 Y76.974 E84.64736
G1 X35.546 Y41.91 E88.34373
G1 X35.444 Y41.965 E88.35236
G1 X35.271 Y42.074 E88.36761
G1 X34.786 Y42.422 E88.4121
G1 X70.61 Y78.247 E92.18864
G1 X70.61 Y79.52 E92.28353
G1 X34.075 Y42.985 E96.13497
G1 X33.49 Y43.506 E96.19336
G1 X33.411 Y43.593 E96.20212
G1 X70.61 Y80.793 E100.12361
G1 X70.61 Y82.066 E100.2185
G1 X32.809 Y44.264 E104.20344
G1 X32.773 Y44.305 E104.20751
G1 X32.636 Y44.479 E104.22402
G1 X32.27 Y44.998 E104.27136
G1 X70.61 Y83.338 E108.31307
G1 X70.61 Y84.611 E108.40797
G1 X31.78 Y45.78 E112.50139
G1 X31.5 Y46.285 E112.54443
G1 X31.399 Y46.492 E112.5616
G1 X31.346 Y46.62 E112.57193
G1 X70.61 Y85.884 E116.71105
G1 X70.61 Y87.157 E116.80594
G1 X30.978 Y47.524 E120.98391
G1 X30.691 Y48.51 E121.06045
G1 X70.61 Y88.43 E125.26868
G1 X70.61 Y89.702 E125.36349
G1 X30.495 Y49.587 E129.59232
G1 X30.458 Y49.812 E129.60932
G1 X30.45 Y49.904 E129.6162
G1 X30.4 Y50.765 E129.68049
G1 X70.61 Y90.975 E133.91934
G1 X70.61 Y92.248 E134.01423
G1 X30.389 Y52.026 E138.25429
G1 X30.388 Y53.298 E138.34911
G1 X70.61 Y93.521 E142.58927
G1 X70.61 Y93.771 E142.6079
G1 X70.591 Y94.052 E142.6289
G1 X70.578 Y94.112 E142.63348
G1 X70.509 Y94.281 E142.64708
G1 X70.416 Y94.407 E142.65876
G1 X70.304 Y94.487 E142.66902
G1 X30.388 Y54.571 E146.87687
G1 X30.388 Y55.055 E146.91295
G1 X30.323 Y55.779 E146.96713
G1 X69.154 Y94.61 E151.06061
G1 X67.881 Y94.61 E151.1555
G1 X30.079 Y56.808 E155.1405
G1 X29.898 Y57.279 E155.17811
G1 X29.68 Y57.681 E155.2122
G1 X66.608 Y94.61 E159.10512
G1 X65.335 Y94.61 E159.20001
G1 X29.166 Y58.44 E163.01291
G1 X28.721 Y58.919 E163.06165
G1 X28.532 Y59.079 E163.08011
G1 X64.063 Y94.61 E166.82571
G1 X62.79 Y94.61 E166.9206
G1 X27.795 Y59.615 E170.60969
G1 X27.633 Y59.718 E170.624
G1 X27.022 Y60.008 E170.67441
G1 X26.942 Y60.035 E170.68071
G1 X61.517 Y94.61 E174.32552
G1 X60.244 Y94.61 E174.42042
G1 X25.938 Y60.304 E178.03688
G1 X25.715 Y60.346 E178.05379
G1 X25.051 Y60.388 E178.10339
G1 X24.75 Y60.388 E178.12582
G1 X58.971 Y94.61 E181.73337
G1 X57.699 Y94.61 E181.82819
G1 X23.477 Y60.388 E185.4358
G1 X22.204 Y60.388 E185.53069
G1 X56.426 Y94.61 E189.13829
G1 X55.153 Y94.61 E189.23318
G1 X20.931 Y60.388 E192.84079
G1 X19.658 Y60.388 E192.93568
G1 X53.88 Y94.61 E196.54328
G1 X52.608 Y94.61 E196.6381
G1 X18.589 Y60.591 E200.22431
G1 X18.568 Y60.607 E200.22627
G1 X18.466 Y60.76 E200.23998
G1 X18.421 Y60.886 E200.24995
G1 X18.408 Y60.945 E200.25446
G1 X18.389 Y61.226 E200.27545
G1 X18.389 Y61.663 E200.30803
G1 X51.335 Y94.61 E203.78117
G1 X50.062 Y94.61 E203.87606
G1 X18.389 Y62.936 E207.21501
G1 X18.389 Y64.209 E207.3099
G1 X48.789 Y94.61 E210.51465
G1 X47.516 Y94.61 E210.60954
G1 X18.389 Y65.482 E213.6801
G1 X18.389 Y66.755 E213.77499
G1 X46.244 Y94.61 E216.7114
G1 X44.971 Y94.61 E216.80629
G1 X18.389 Y68.027 E219.60856
G1 X18.389 Y69.3 E219.70345
G1 X43.698 Y94.61 E222.37152
G1 X42.425 Y94.61 E222.46641
G1 X18.389 Y70.573 E225.00028
G1 X18.389 Y71.846 E225.09517
G1 X41.152 Y94.61 E227.49485
G1 X39.88 Y94.61 E227.58967
G1 X18.389 Y73.119 E229.8552
G1 X18.389 Y74.391 E229.95002
G1 X38.607 Y94.61 E232.0814
G1 X37.334 Y94.61 E232.1763
G1 X18.389 Y75.664 E234.17349
G1 X18.389 Y76.937 E234.26838
G1 X36.061 Y94.61 E236.13137
G1 X34.788 Y94.61 E236.22626
G1 X18.389 Y78.21 E237.95506
G1 X18.389 Y79.483 E238.04995
G1 X33.516 Y94.61 E239.64461
G1 X32.243 Y94.61 E239.7395
G1 X18.389 Y80.755 E241.20001
G1 X18.389 Y82.028 E241.2949
G1 X30.97 Y94.61 E242.62121
G1 X29.697 Y94.61 E242.7161
G1 X18.389 Y83.301 E243.90822
G1 X18.389 Y84.574 E244.00311
G1 X28.424 Y94.61 E245.06103
G1 X27.152 Y94.61 E245.15585
G1 X18.389 Y85.847 E246.07962
G1 X18.389 Y87.119 E246.17444
G1 X25.879 Y94.61 E246.96407
G1 X24.606 Y94.61 E247.05896
G1 X18.389 Y88.392 E247.7144
G1 X18.389 Y89.665 E247.80929
G1 X23.333 Y94.61 E248.33053
G1 X22.061 Y94.61 E248.42534
G1 X18.389 Y90.938 E248.81244
G1 X18.389 Y92.21 E248.90725
G1 X20.788 Y94.61 E249.1602
G1 X19.515 Y94.61 E249.25509
G1 X18.389 Y93.483 E249.37385
G1 F3600 X18.389 Y93.854
G1 F1980 X18.394 Y93.997 E249.38451
G1 X18.422 Y94.119 E249.39384
G1 X18.475 Y94.256 E249.40479
G1 X18.591 Y94.413 E249.41934
G1 X18.714 Y94.507 E249.43088
G1 X18.763 Y94.533 E249.43502
G1 X18.886 Y94.578 E249.44478
G1 X18.945 Y94.59 E249.44927
G1 X19.228 Y94.61 E249.47042
G1 X19.515 Y94.61 E249.49181
G1 F1680 E246.49181
G1 F3600 X60.077 Y56.933
G1 F1680 E249.49181
G1 F1980 X60.573 Y57.393 E249.54224
G1 X61.123 Y57.788 E249.59271
G1 X61.718 Y58.109 E249.64311
G1 F3600 X62.059 Y58.24
G1 F1980 X70.61 Y66.792 E250.54459
G1 X70.61 Y65.519 E250.63948
G1 X63.689 Y58.597 E251.36913
G1 X64.961 Y58.597 E251.46394
G1 X70.61 Y64.247 E252.0595
G1 X70.61 Y62.974 E252.15439
G1 X66.371 Y58.734 E252.60131
G1 X66.431 Y58.777 E252.60681
G1 X66.568 Y58.91 E252.62105
G1 X67.074 Y59.343 E252.67069
G1 X67.64 Y59.713 E252.72109
G1 X68.247 Y60.01 E252.77147
G1 X68.889 Y60.228 E252.82201
G1 X69.201 Y60.291 E252.84573
G1 X69.546 Y60.36 E252.87196
G1 X69.89 Y60.398 E252.89776
G1 X70.053 Y60.408 E252.90993
G1 X70.113 Y60.421 E252.91451
G1 X70.236 Y60.465 E252.92424
G1 X70.285 Y60.492 E252.92842
G1 X70.405 Y60.582 E252.9396
G1 X70.52 Y60.736 E252.95392
G1 X70.577 Y60.879 E252.9654
G1 X70.604 Y60.997 E252.97442
G1 X70.61 Y61.139 E252.98502
G1 F3600 X70.61 Y61.701
G1 F1980 X69.201 Y60.291 E253.1336
G1 F1680 E250.1336
G1 F3600 X60.077 Y56.933
G1 F1680 E253.1336
G1 F1980 X59.643 Y56.414 E253.18403
G1 X59.278 Y55.843 E253.23455
G1 X58.988 Y55.232 E253.28496
G1 X58.959 Y55.14 E253.29215
G1 F1680 E250.29215
G1 F3600 X55.618 Y43.404
;TIME_ELAPSED:177.099130
;LAYER:-6
M106 S255
G1 X55.618 Y43.404 Z0.62
G1 F1680 E253.29215
G1 F2400 X55.392 Y43.2 E253.30418
G1 X33.61 Y43.2 E254.16449
G1 X34.058 Y42.8 E254.18821
G1 X54.946 Y42.8 E255.01321
G1 X54.798 Y42.667 E255.02107
G1 X54.609 Y42.517 E255.0306
G1 X54.443 Y42.4 E255.03862
G1 X34.559 Y42.4 E255.82397
G1 X35.119 Y42 E255.85115
G1 X53.874 Y42 E256.59191
G1 X53.709 Y41.884 E256.59987
G1 X53.2 Y41.6 E256.62289
G1 X35.801 Y41.6 E257.31009
G1 X36.341 Y41.303 E257.33443
G1 X36.589 Y41.2 E257.34504
G1 X52.416 Y41.2 E257.97015
G1 X51.559 Y40.849 E258.00673
G1 X51.392 Y40.8 E258.0136
G1 X37.596 Y40.8 E258.55849
G1 X38.604 Y40.512 E258.5999
G1 X39.251 Y40.4 E258.62583
G1 X39.649 Y40.331 E258.64179
G1 X39.899 Y40.301 E258.65173
G1 X41.028 Y40.24 E258.69639
G1 X48.054 Y40.242 E258.97389
G1 X49.195 Y40.309 E259.01903
G1 F3600 X49.745 Y40.4
G1 F2400 X39.251 Y40.4 E259.43351
G1 F1680 E256.43351
G1 F3600 X33.206 Y43.6
G1 F1680 E259.43351
G1 F2400 X55.793 Y43.6 E260.32561
G1 X55.618 Y43.404 E260.33599
G1 F3600 X56.148 Y44
G1 F2400 X56.411 Y44.296 E260.35163
G1 X56.486 Y44.4 E260.35669
G1 X32.51 Y44.4 E261.30366
G1 X32.228 Y44.8 E261.32299
G1 X56.771 Y44.8 E262.29235
G1 X57.041 Y45.179 E262.31073
G1 X57.055 Y45.2 E262.31173
G1 X31.947 Y45.2 E263.3034
G1 X31.884 Y45.289 E263.30771
G1 X31.711 Y45.6 E263.32176
G1 X57.289 Y45.6 E264.332
G1 X57.508 Y46 E264.35002
G1 X31.488 Y46 E265.37771
G1 X31.369 Y46.213 E265.38735
G1 X31.278 Y46.4 E265.39556
G1 X57.72 Y46.4 E266.43993
G1 X57.887 Y46.8 E266.45705
G1 X31.111 Y46.8 E267.5146
G1 X30.947 Y47.2 E267.53168
G1 X58.054 Y47.2 E268.60231
G1 X58.109 Y47.334 E268.60803
G1 X58.188 Y47.561 E268.61752
G1 X58.2 Y47.6 E268.61913
G1 X30.802 Y47.6 E269.70126
G1 X30.686 Y48 E269.7177
G1 X58.314 Y48 E270.80891
G1 X58.428 Y48.4 E270.82534
G1 X30.569 Y48.4 E271.92567
G1 X30.537 Y48.507 E271.93008
G1 X30.486 Y48.735 E271.93931
G1 X30.476 Y48.8 E271.94191
G1 X58.52 Y48.8 E273.04954
G1 X58.59 Y49.2 E273.06558
